; generated by Slic3r 1.2.9 on 2016-11-10 at 18:34:24

; external perimeters extrusion width = 0.35mm
; perimeters extrusion width = 0.44mm
; infill extrusion width = 0.44mm
; solid infill extrusion width = 0.44mm
; top infill extrusion width = 0.44mm
; support material extrusion width = 0.35mm

M104 S220 ; set temperature
G28 ; home all axes
G1 Z5 F5000 ; lift nozzle
M109 S220 ; wait for temperature to be reached
G21 ; set units to millimeters
G90 ; use absolute coordinates
M82 ; use absolute distances for extrusion
G92 E0
G1 Z0.300 F18000.000
G1 E-0.60000 F1440.00000
G92 E0
G1 Z0.500 F18000.000
G1 X86.753 Y109.328 F18000.000
G1 Z0.300 F18000.000
G1 E0.60000 F1440.00000
G1 X90.000 Y108.464 E0.82443 F1080.000
G1 X110.000 Y108.464 E2.16054
G1 X112.243 Y108.861 E2.31271
G1 X114.213 Y110.004 E2.46488 F1080.000
G1 X115.672 Y111.753 E2.61705
G1 X116.536 Y115.000 E2.84148
G1 X116.536 Y135.000 E4.17759
G1 X116.139 Y137.243 E4.32976
G1 X114.996 Y139.213 E4.48193
G1 X113.247 Y140.672 E4.63410
G1 X110.000 Y141.536 E4.85853
G1 X90.000 Y141.536 E6.19464
G1 X87.757 Y141.139 E6.34681
G1 X85.787 Y139.996 E6.49898
G1 X84.328 Y138.247 E6.65115
G1 X83.464 Y135.000 E6.87558
G1 X83.464 Y115.000 E8.21169
G1 X83.861 Y112.757 E8.36386
G1 X85.004 Y110.787 E8.51603
G1 X86.713 Y109.361 E8.66470
G1 E8.06470 F1440.00000
G92 E0
G1 Z0.500 F18000.000
G1 X109.700 Y134.700 F18000.000
G1 Z0.300 F18000.000
G1 E0.60000 F1440.00000
G1 X90.300 Y134.700 E1.89603 F882.000
G1 X90.300 Y115.300 E3.19206
G1 X109.700 Y115.300 E4.48808
G1 X109.700 Y134.648 E5.78060
G1 Z0.300 F18000.000
G1 Z0.550 F18000.000
G1 X109.825 Y134.825 F18000.000
G1 X90.175 Y134.825 E6.38586 F2940.000
G1 X90.175 Y115.175 E6.99112
G1 X109.825 Y115.175 E7.59638
G1 X109.825 Y134.773 E8.20002
G1 Z0.800 F18000.000
G1 X109.825 Y134.825 F18000.000
G1 X90.175 Y134.825 E8.80528 F2940.000
G1 X90.175 Y115.175 E9.41054
G1 X109.825 Y115.175 E10.01580
G1 X109.825 Y134.773 E10.61945
G1 Z1.050 F18000.000
G1 X109.825 Y134.825 F18000.000
G1 X90.175 Y134.825 E11.22471 F2940.000
G1 X90.175 Y115.175 E11.82997
G1 X109.825 Y115.175 E12.43523
G1 X109.825 Y134.773 E13.03887
G1 Z1.300 F18000.000
G1 X109.825 Y134.825 F18000.000
G1 X90.175 Y134.825 E13.64413 F2940.000
G1 X90.175 Y115.175 E14.24939
G1 X109.825 Y115.175 E14.85465
G1 X109.825 Y134.773 E15.45829
G1 Z1.550 F18000.000
G1 X109.825 Y134.825 F18000.000
G1 X90.175 Y134.825 E16.06355 F2940.000
G1 X90.175 Y115.175 E16.66881
G1 X109.825 Y115.175 E17.27407
G1 X109.825 Y134.773 E17.87771
G1 Z1.800 F18000.000
G1 X109.825 Y134.825 F18000.000
G1 X90.175 Y134.825 E18.48297 F2940.000
G1 X90.175 Y115.175 E19.08823
G1 X109.825 Y115.175 E19.69349
G1 X109.825 Y134.773 E20.29713
G1 Z2.050 F18000.000
G1 X109.825 Y134.825 F18000.000
G1 X90.175 Y134.825 E20.90239 F2940.000
G1 X90.175 Y115.175 E21.50765
G1 X109.825 Y115.175 E22.11291
G1 X109.825 Y134.773 E22.71655
G1 Z2.300 F18000.000
G1 X109.825 Y134.825 F18000.000
G1 X90.175 Y134.825 E23.32181 F2940.000
G1 X90.175 Y115.175 E23.92707
G1 X109.825 Y115.175 E24.53233
G1 X109.825 Y134.773 E25.13598
G1 Z2.550 F18000.000
G1 X109.825 Y134.825 F18000.000
G1 X90.175 Y134.825 E25.74124 F2940.000
G1 X90.175 Y115.175 E26.34650
G1 X109.825 Y115.175 E26.95176
G1 X109.825 Y134.773 E27.55540
G1 Z2.800 F18000.000
G1 X109.825 Y134.825 F18000.000
G1 X90.175 Y134.825 E28.16066 F2940.000
G1 X90.175 Y115.175 E28.76592
G1 X109.825 Y115.175 E29.37118
G1 X109.825 Y134.773 E29.97482
G1 Z3.050 F18000.000
G1 X109.825 Y134.825 F18000.000
G1 X90.175 Y134.825 E30.58008 F2940.000
G1 X90.175 Y115.175 E31.18534
G1 X109.825 Y115.175 E31.79060
G1 X109.825 Y134.773 E32.39424
G1 Z3.300 F18000.000
G1 X109.825 Y134.825 F18000.000
G1 X90.175 Y134.825 E32.99950 F2940.000
G1 X90.175 Y115.175 E33.60476
G1 X109.825 Y115.175 E34.21002
G1 X109.825 Y134.773 E34.81366
G1 Z3.550 F18000.000
G1 X109.825 Y134.825 F18000.000
G1 X90.175 Y134.825 E35.41892 F2940.000
G1 X90.175 Y115.175 E36.02418
G1 X109.825 Y115.175 E36.62944
G1 X109.825 Y134.773 E37.23308
G1 Z3.800 F18000.000
G1 X109.825 Y134.825 F18000.000
G1 X90.175 Y134.825 E37.83834 F2940.000
G1 X90.175 Y115.175 E38.44360
G1 X109.825 Y115.175 E39.04886
G1 X109.825 Y134.773 E39.65251
G1 Z4.050 F18000.000
G1 X109.825 Y134.825 F18000.000
G1 X90.175 Y134.825 E40.25777 F2940.000
G1 X90.175 Y115.175 E40.86302
G1 X109.825 Y115.175 E41.46828
G1 X109.825 Y134.773 E42.07193
G1 Z4.300 F18000.000
G1 X109.825 Y134.825 F18000.000
G1 X90.175 Y134.825 E42.67719 F2940.000
G1 X90.175 Y115.175 E43.28245
G1 X109.825 Y115.175 E43.88771
G1 X109.825 Y134.773 E44.49135
G1 Z4.550 F18000.000
G1 X109.825 Y134.825 F18000.000
G1 X90.175 Y134.825 E45.09661 F2940.000
G1 X90.175 Y115.175 E45.70187
G1 X109.825 Y115.175 E46.30713
G1 X109.825 Y134.773 E46.91077
G1 Z4.800 F18000.000
G1 X109.825 Y134.825 F18000.000
G1 X90.175 Y134.825 E47.51603 F2940.000
G1 X90.175 Y115.175 E48.12129
G1 X109.825 Y115.175 E48.72655
G1 X109.825 Y134.773 E49.33019
G1 Z5.050 F18000.000
G1 X109.825 Y134.825 F18000.000
G1 X90.175 Y134.825 E49.93545 F2940.000
G1 X90.175 Y115.175 E50.54071
G1 X109.825 Y115.175 E51.14597
G1 X109.825 Y134.773 E51.74961
G1 Z5.300 F18000.000
G1 X109.825 Y134.825 F18000.000
G1 X90.175 Y134.825 E52.35487 F2940.000
G1 X90.175 Y115.175 E52.96013
G1 X109.825 Y115.175 E53.56539
G1 X109.825 Y134.773 E54.16904
G1 Z5.550 F18000.000
G1 X109.825 Y134.825 F18000.000
G1 X90.175 Y134.825 E54.77429 F2940.000
G1 X90.175 Y115.175 E55.37955
G1 X109.825 Y115.175 E55.98481
G1 X109.825 Y134.773 E56.58846
G1 Z5.800 F18000.000
G1 X109.825 Y134.825 F18000.000
G1 X90.175 Y134.825 E57.19372 F2940.000
G1 X90.175 Y115.175 E57.79898
G1 X109.825 Y115.175 E58.40424
G1 X109.825 Y134.773 E59.00788
G1 Z6.050 F18000.000
G1 X109.825 Y134.825 F18000.000
G1 X90.175 Y134.825 E59.61314 F2940.000
G1 X90.175 Y115.175 E60.21840
G1 X109.825 Y115.175 E60.82366
G1 X109.825 Y134.773 E61.42730
G1 Z6.300 F18000.000
G1 X109.825 Y134.825 F18000.000
G1 X90.175 Y134.825 E62.03256 F2940.000
G1 X90.175 Y115.175 E62.63782
G1 X109.825 Y115.175 E63.24308
G1 X109.825 Y134.773 E63.84672
G1 Z6.550 F18000.000
G1 X109.825 Y134.825 F18000.000
G1 X90.175 Y134.825 E64.45198 F2940.000
G1 X90.175 Y115.175 E65.05724
G1 X109.825 Y115.175 E65.66250
G1 X109.825 Y134.773 E66.26614
G1 Z6.800 F18000.000
G1 X109.825 Y134.825 F18000.000
G1 X90.175 Y134.825 E66.87140 F2940.000
G1 X90.175 Y115.175 E67.47666
G1 X109.825 Y115.175 E68.08192
G1 X109.825 Y134.773 E68.68556
G1 Z7.050 F18000.000
G1 X109.825 Y134.825 F18000.000
G1 X90.175 Y134.825 E69.29082 F2940.000
G1 X90.175 Y115.175 E69.89608
G1 X109.825 Y115.175 E70.50134
G1 X109.825 Y134.773 E71.10499
G1 Z7.300 F18000.000
G1 X109.825 Y134.825 F18000.000
G1 X90.175 Y134.825 E71.71025 F2940.000
G1 X90.175 Y115.175 E72.31551
G1 X109.825 Y115.175 E72.92077
G1 X109.825 Y134.773 E73.52441
G1 Z7.550 F18000.000
G1 X109.825 Y134.825 F18000.000
G1 X90.175 Y134.825 E74.12967 F2940.000
G1 X90.175 Y115.175 E74.73493
G1 X109.825 Y115.175 E75.34019
G1 X109.825 Y134.773 E75.94383
G1 Z7.800 F18000.000
G1 X109.825 Y134.825 F18000.000
G1 X90.175 Y134.825 E76.54909 F2940.000
G1 X90.175 Y115.175 E77.15435
G1 X109.825 Y115.175 E77.75961
G1 X109.825 Y134.773 E78.36325
G1 Z8.050 F18000.000
G1 X109.825 Y134.825 F18000.000
G1 X90.175 Y134.825 E78.96851 F2940.000
G1 X90.175 Y115.175 E79.57377
G1 X109.825 Y115.175 E80.17903
G1 X109.825 Y134.773 E80.78267
G1 Z8.300 F18000.000
G1 X109.825 Y134.825 F18000.000
G1 X90.175 Y134.825 E81.38793 F2940.000
G1 X90.175 Y115.175 E81.99319
G1 X109.825 Y115.175 E82.59845
G1 X109.825 Y134.773 E83.20209
G1 Z8.550 F18000.000
G1 X109.825 Y134.825 F18000.000
G1 X90.175 Y134.825 E83.80735 F2940.000
G1 X90.175 Y115.175 E84.41261
G1 X109.825 Y115.175 E85.01787
G1 X109.825 Y134.773 E85.62152
G1 Z8.800 F18000.000
G1 X109.825 Y134.825 F18000.000
G1 X90.175 Y134.825 E86.22678 F2940.000
G1 X90.175 Y115.175 E86.83204
G1 X109.825 Y115.175 E87.43730
G1 X109.825 Y134.773 E88.04094
G1 Z9.050 F18000.000
G1 X109.825 Y134.825 F18000.000
G1 X90.175 Y134.825 E88.64620 F2940.000
G1 X90.175 Y115.175 E89.25146
G1 X109.825 Y115.175 E89.85672
G1 X109.825 Y134.773 E90.46036
G1 Z9.300 F18000.000
G1 X109.825 Y134.825 F18000.000
G1 X90.175 Y134.825 E91.06562 F2940.000
G1 X90.175 Y115.175 E91.67088
G1 X109.825 Y115.175 E92.27614
G1 X109.825 Y134.773 E92.87978
G1 Z9.550 F18000.000
G1 X109.825 Y134.825 F18000.000
G1 X90.175 Y134.825 E93.48504 F2940.000
G1 X90.175 Y115.175 E94.09030
G1 X109.825 Y115.175 E94.69556
G1 X109.825 Y134.773 E95.29920
G1 Z9.800 F18000.000
G1 X109.825 Y134.825 F18000.000
G1 X90.175 Y134.825 E95.90446 F2940.000
G1 X90.175 Y115.175 E96.50972
G1 X109.825 Y115.175 E97.11498
G1 X109.825 Y134.773 E97.71862
G1 Z10.050 F18000.000
G1 X109.825 Y134.825 F18000.000
G1 X90.175 Y134.825 E98.32388 F2940.000
G1 X90.175 Y115.175 E98.92914
G1 X109.825 Y115.175 E99.53440
G1 X109.825 Y134.773 E100.13805
G1 Z10.300 F18000.000
G1 X109.825 Y134.825 F18000.000
G1 X90.175 Y134.825 E100.74331 F2940.000
G1 X90.175 Y115.175 E101.34856
G1 X109.825 Y115.175 E101.95382
G1 X109.825 Y134.773 E102.55747
G1 Z10.550 F18000.000
G1 X109.825 Y134.825 F18000.000
G1 X90.175 Y134.825 E103.16273 F2940.000
G1 X90.175 Y115.175 E103.76799
G1 X109.825 Y115.175 E104.37325
G1 X109.825 Y134.773 E104.97689
G1 Z10.800 F18000.000
G1 X109.825 Y134.825 F18000.000
G1 X90.175 Y134.825 E105.58215 F2940.000
G1 X90.175 Y115.175 E106.18741
G1 X109.825 Y115.175 E106.79267
G1 X109.825 Y134.773 E107.39631
G1 Z11.050 F18000.000
G1 X109.825 Y134.825 F18000.000
G1 X90.175 Y134.825 E108.00157 F2940.000
G1 X90.175 Y115.175 E108.60683
G1 X109.825 Y115.175 E109.21209
G1 X109.825 Y134.773 E109.81573
G1 Z11.300 F18000.000
G1 X109.825 Y134.825 F18000.000
G1 X90.175 Y134.825 E110.42099 F2940.000
G1 X90.175 Y115.175 E111.02625
G1 X109.825 Y115.175 E111.63151
G1 X109.825 Y134.773 E112.23515
G1 Z11.550 F18000.000
G1 X109.825 Y134.825 F18000.000
G1 X90.175 Y134.825 E112.84041 F2940.000
G1 X90.175 Y115.175 E113.44567
G1 X109.825 Y115.175 E114.05093
G1 X109.825 Y134.773 E114.65458
G1 Z11.800 F18000.000
G1 X109.825 Y134.825 F18000.000
G1 X90.175 Y134.825 E115.25983 F2940.000
G1 X90.175 Y115.175 E115.86509
G1 X109.825 Y115.175 E116.47035
G1 X109.825 Y134.773 E117.07400
G1 Z12.050 F18000.000
G1 X109.825 Y134.825 F18000.000
G1 X90.175 Y134.825 E117.67926 F2940.000
G1 X90.175 Y115.175 E118.28452
G1 X109.825 Y115.175 E118.88978
G1 X109.825 Y134.773 E119.49342
G1 Z12.300 F18000.000
G1 X109.825 Y134.825 F18000.000
G1 X90.175 Y134.825 E120.09868 F2940.000
G1 X90.175 Y115.175 E120.70394
G1 X109.825 Y115.175 E121.30920
G1 X109.825 Y134.773 E121.91284
G1 Z12.550 F18000.000
G1 X109.825 Y134.825 F18000.000
G1 X90.175 Y134.825 E122.51810 F2940.000
G1 X90.175 Y115.175 E123.12336
G1 X109.825 Y115.175 E123.72862
G1 X109.825 Y134.773 E124.33226
G1 Z12.800 F18000.000
G1 X109.825 Y134.825 F18000.000
G1 X90.175 Y134.825 E124.93752 F2940.000
G1 X90.175 Y115.175 E125.54278
G1 X109.825 Y115.175 E126.14804
G1 X109.825 Y134.773 E126.75168
G1 Z13.050 F18000.000
G1 X109.825 Y134.825 F18000.000
G1 X90.175 Y134.825 E127.35694 F2940.000
G1 X90.175 Y115.175 E127.96220
G1 X109.825 Y115.175 E128.56746
G1 X109.825 Y134.773 E129.17110
G1 Z13.300 F18000.000
G1 X109.825 Y134.825 F18000.000
G1 X90.175 Y134.825 E129.77636 F2940.000
G1 X90.175 Y115.175 E130.38162
G1 X109.825 Y115.175 E130.98688
G1 X109.825 Y134.773 E131.59053
G1 Z13.550 F18000.000
G1 X109.825 Y134.825 F18000.000
G1 X90.175 Y134.825 E132.19579 F2940.000
G1 X90.175 Y115.175 E132.80105
G1 X109.825 Y115.175 E133.40631
G1 X109.825 Y134.773 E134.00995
G1 Z13.800 F18000.000
G1 X109.825 Y134.825 F18000.000
G1 X90.175 Y134.825 E134.61521 F2940.000
G1 X90.175 Y115.175 E135.22047
G1 X109.825 Y115.175 E135.82573
G1 X109.825 Y134.773 E136.42937
G1 Z14.050 F18000.000
G1 X109.825 Y134.825 F18000.000
G1 X90.175 Y134.825 E137.03463 F2940.000
G1 X90.175 Y115.175 E137.63989
G1 X109.825 Y115.175 E138.24515
G1 X109.825 Y134.773 E138.84879
G1 Z14.300 F18000.000
G1 X109.825 Y134.825 F18000.000
G1 X90.175 Y134.825 E139.45405 F2940.000
G1 X90.175 Y115.175 E140.05931
G1 X109.825 Y115.175 E140.66457
G1 X109.825 Y134.773 E141.26821
G1 Z14.550 F18000.000
G1 X109.825 Y134.825 F18000.000
G1 X90.175 Y134.825 E141.87347 F2940.000
G1 X90.175 Y115.175 E142.47873
G1 X109.825 Y115.175 E143.08399
G1 X109.825 Y134.773 E143.68763
G1 Z14.800 F18000.000
G1 X109.825 Y134.825 F18000.000
G1 X90.175 Y134.825 E144.29289 F2940.000
G1 X90.175 Y115.175 E144.89815
G1 X109.825 Y115.175 E145.50341
G1 X109.825 Y134.773 E146.10706
G1 Z15.050 F18000.000
G1 X109.825 Y134.825 F18000.000
G1 X90.175 Y134.825 E146.71232 F2940.000
G1 X90.175 Y115.175 E147.31758
G1 X109.825 Y115.175 E147.92284
G1 X109.825 Y134.773 E148.52648
G1 Z15.300 F18000.000
G1 X109.825 Y134.825 F18000.000
G1 X90.175 Y134.825 E149.13174 F2940.000
G1 X90.175 Y115.175 E149.73700
G1 X109.825 Y115.175 E150.34226
G1 X109.825 Y134.773 E150.94590
G1 Z15.550 F18000.000
G1 X109.825 Y134.825 F18000.000
G1 X90.175 Y134.825 E151.55116 F2940.000
G1 X90.175 Y115.175 E152.15642
G1 X109.825 Y115.175 E152.76168
G1 X109.825 Y134.773 E153.36532
G1 Z15.800 F18000.000
G1 X109.825 Y134.825 F18000.000
G1 X90.175 Y134.825 E153.97058 F2940.000
G1 X90.175 Y115.175 E154.57584
G1 X109.825 Y115.175 E155.18110
G1 X109.825 Y134.773 E155.78474
G1 Z16.050 F18000.000
G1 X109.825 Y134.825 F18000.000
G1 X90.175 Y134.825 E156.39000 F2940.000
G1 X90.175 Y115.175 E156.99526
G1 X109.825 Y115.175 E157.60052
G1 X109.825 Y134.773 E158.20416
G1 Z16.300 F18000.000
G1 X109.825 Y134.825 F18000.000
G1 X90.175 Y134.825 E158.80942 F2940.000
G1 X90.175 Y115.175 E159.41468
G1 X109.825 Y115.175 E160.01994
G1 X109.825 Y134.773 E160.62359
G1 Z16.550 F18000.000
G1 X109.825 Y134.825 F18000.000
G1 X90.175 Y134.825 E161.22885 F2940.000
G1 X90.175 Y115.175 E161.83410
G1 X109.825 Y115.175 E162.43936
G1 X109.825 Y134.773 E163.04301
G1 Z16.800 F18000.000
G1 X109.825 Y134.825 F18000.000
G1 X90.175 Y134.825 E163.64827 F2940.000
G1 X90.175 Y115.175 E164.25353
G1 X109.825 Y115.175 E164.85879
G1 X109.825 Y134.773 E165.46243
G1 Z17.050 F18000.000
G1 X109.825 Y134.825 F18000.000
G1 X90.175 Y134.825 E166.06769 F2940.000
G1 X90.175 Y115.175 E166.67295
G1 X109.825 Y115.175 E167.27821
G1 X109.825 Y134.773 E167.88185
G1 Z17.300 F18000.000
G1 X109.825 Y134.825 F18000.000
G1 X90.175 Y134.825 E168.48711 F2940.000
G1 X90.175 Y115.175 E169.09237
G1 X109.825 Y115.175 E169.69763
G1 X109.825 Y134.773 E170.30127
G1 Z17.550 F18000.000
G1 X109.825 Y134.825 F18000.000
G1 X90.175 Y134.825 E170.90653 F2940.000
G1 X90.175 Y115.175 E171.51179
G1 X109.825 Y115.175 E172.11705
G1 X109.825 Y134.773 E172.72069
G1 Z17.800 F18000.000
G1 X109.825 Y134.825 F18000.000
G1 X90.175 Y134.825 E173.32595 F2940.000
G1 X90.175 Y115.175 E173.93121
G1 X109.825 Y115.175 E174.53647
G1 X109.825 Y134.773 E175.14012
G1 Z18.050 F18000.000
G1 X109.825 Y134.825 F18000.000
G1 X90.175 Y134.825 E175.74537 F2940.000
G1 X90.175 Y115.175 E176.35063
G1 X109.825 Y115.175 E176.95589
G1 X109.825 Y134.773 E177.55954
G1 Z18.300 F18000.000
G1 X109.825 Y134.825 F18000.000
G1 X90.175 Y134.825 E178.16480 F2940.000
G1 X90.175 Y115.175 E178.77006
G1 X109.825 Y115.175 E179.37532
G1 X109.825 Y134.773 E179.97896
G1 Z18.550 F18000.000
G1 X109.825 Y134.825 F18000.000
G1 X90.175 Y134.825 E180.58422 F2940.000
G1 X90.175 Y115.175 E181.18948
G1 X109.825 Y115.175 E181.79474
G1 X109.825 Y134.773 E182.39838
G1 Z18.800 F18000.000
G1 X109.825 Y134.825 F18000.000
G1 X90.175 Y134.825 E183.00364 F2940.000
G1 X90.175 Y115.175 E183.60890
G1 X109.825 Y115.175 E184.21416
G1 X109.825 Y134.773 E184.81780
G1 Z19.050 F18000.000
G1 X109.825 Y134.825 F18000.000
G1 X90.175 Y134.825 E185.42306 F2940.000
G1 X90.175 Y115.175 E186.02832
G1 X109.825 Y115.175 E186.63358
G1 X109.825 Y134.773 E187.23722
G1 Z19.300 F18000.000
G1 X109.825 Y134.825 F18000.000
G1 X90.175 Y134.825 E187.84248 F2940.000
G1 X90.175 Y115.175 E188.44774
G1 X109.825 Y115.175 E189.05300
G1 X109.825 Y134.773 E189.65664
G1 Z19.550 F18000.000
G1 X109.825 Y134.825 F18000.000
G1 X90.175 Y134.825 E190.26190 F2940.000
G1 X90.175 Y115.175 E190.86716
G1 X109.825 Y115.175 E191.47242
G1 X109.825 Y134.773 E192.07607
