; generated by Slic3r 1.2.9 on 2016-12-30 at 20:02:46

; external perimeters extrusion width = 0.40mm
; perimeters extrusion width = 0.40mm
; infill extrusion width = 0.40mm
; solid infill extrusion width = 0.40mm
; top infill extrusion width = 0.40mm
; support material extrusion width = 0.40mm

M190 S110 ; set bed temperature
M104 S245 ; set temperature
G28 ; home all axes
G1 Z5 F5000 ; lift nozzle
M109 S245 ; wait for temperature to be reached
G21 ; set units to millimeters
G90 ; use absolute coordinates
M82 ; use absolute distances for extrusion
G92 E0
G1 E-0.60000 F1440.00000
G92 E0
G1 Z0.200 F18000.000
G1 Z0.350 F18000.000
G1 Z0.550 F18000.000
G1 X83.296 Y92.807 F18000.000
G1 Z0.350 F18000.000
G1 E0.60000 F1440.00000
G1 X85.832 Y91.396 E0.72352 F480.000
G1 X89.663 Y90.678 E0.88934
G1 X105.080 Y90.678 E1.54526
G1 X107.955 Y91.076 E1.66877
G1 X110.615 Y92.240 E1.79229 F480.000
G1 X113.725 Y95.156 E1.97366
G1 X129.918 Y118.079 E3.16774
G1 X131.252 Y120.657 E3.29125
G1 X131.857 Y124.186 E3.44358
G1 X131.857 Y127.043 E3.56514
G1 X131.459 Y129.918 E3.68865
G1 X130.104 Y132.877 E3.82711
G1 X118.911 Y149.819 E4.69104
G1 X117.372 Y151.657 E4.79305
G1 X112.372 Y156.409 E5.08654
G1 X110.013 Y158.102 E5.21005
G1 X107.283 Y159.090 E5.33357
G1 X105.080 Y159.322 E5.42784
G1 X100.080 Y159.322 E5.64058
G1 X97.204 Y158.924 E5.76409
G1 X95.536 Y158.297 E5.83988
G1 X85.536 Y153.545 E6.31095
G1 X83.811 Y152.514 E6.39647
G1 X72.459 Y144.171 E6.99586
G1 X70.378 Y142.147 E7.11938
G1 X68.925 Y139.634 E7.24290
G1 X68.143 Y135.642 E7.41597
G1 X68.143 Y115.642 E8.26689
G1 X68.541 Y112.766 E8.39041
G1 X70.303 Y109.234 E8.55833
G1 X81.238 Y94.855 E9.32692
G1 X83.258 Y92.844 E9.44820
G1 X83.503 Y93.017 F18000.000
G1 X86.013 Y91.639 E9.56999 F480.000
G1 X89.663 Y90.970 E9.72789
G1 X105.080 Y90.970 E10.38381
G1 X107.914 Y91.368 E10.50560
G1 X110.530 Y92.532 E10.62739 F480.000
G1 X113.486 Y95.324 E10.80042
G1 X129.679 Y118.247 E11.99449
G1 X130.989 Y120.792 E12.11628
G1 X131.565 Y124.186 E12.26272
G1 X131.565 Y127.043 E12.38428
G1 X131.167 Y129.877 E12.50607
G1 X129.860 Y132.716 E12.63902
G1 X118.667 Y149.658 E13.50295
G1 X117.170 Y151.445 E13.60214
G1 X112.170 Y156.198 E13.89563
G1 X109.841 Y157.862 E14.01742
G1 X107.144 Y158.820 E14.13921
G1 X105.080 Y159.030 E14.22749
G1 X100.080 Y159.030 E14.44022
G1 X97.245 Y158.632 E14.56201
G1 X95.662 Y158.033 E14.63401
G1 X85.662 Y153.281 E15.10508
G1 X83.984 Y152.278 E15.18824
G1 X72.632 Y143.935 E15.78763
G1 X70.584 Y141.936 E15.90942
G1 X69.166 Y139.449 E16.03121
G1 X68.435 Y135.642 E16.19616
G1 X68.435 Y115.642 E17.04709
G1 X68.833 Y112.807 E17.16888
G1 X70.535 Y109.411 E17.33048
G1 X81.471 Y95.032 E18.09908
G1 X83.466 Y93.054 E18.21863
G1 E17.61863 F1440.00000
G92 E0
G1 Z0.550 F18000.000
G1 X104.555 Y143.460 F18000.000
G1 Z0.350 F18000.000
G1 E0.60000 F1440.00000
G1 X104.555 Y148.212 E0.82466 F480.000
G1 X100.604 Y148.212 E1.01141
G1 X100.604 Y143.460 E1.23608
G1 X90.604 Y143.460 E1.70883
G1 X90.604 Y135.117 E2.10327
G1 X79.253 Y135.117 E2.63993
G1 X79.253 Y116.167 E3.53582
G1 X95.604 Y116.167 E4.30886
G1 X95.604 Y109.477 E4.62512
G1 X90.188 Y109.477 E4.88118
G1 X90.188 Y101.788 E5.24470
G1 X104.555 Y101.788 E5.92390
G1 X104.555 Y116.167 E6.60367
G1 X113.050 Y116.167 E7.00531
G1 X113.050 Y118.996 E7.13908
G1 X115.859 Y118.996 E7.27188
G1 X115.859 Y121.853 E7.40696
G1 X118.550 Y121.853 E7.53413
G1 X118.550 Y124.710 E7.66921
G1 X120.747 Y124.710 E7.77310
G1 X120.747 Y126.518 E7.85855
G1 X118.550 Y126.518 E7.96245
G1 X118.550 Y129.375 E8.09752
G1 X115.859 Y129.375 E8.22470
G1 X115.859 Y132.232 E8.35977
G1 X113.050 Y132.232 E8.49257
G1 X113.050 Y135.117 E8.62895
G1 X109.555 Y135.117 E8.79421
G1 X109.555 Y143.460 E9.18865
G1 X104.607 Y143.460 E9.42254
G1 X104.880 Y143.785 F18000.000
G1 X104.880 Y148.537 E9.64721 F480.000
G1 X100.280 Y148.537 E9.86468
G1 X100.280 Y143.785 E10.08934
G1 X90.280 Y143.785 E10.56210
G1 X90.280 Y135.442 E10.95653
G1 X78.928 Y135.442 E11.49320
G1 X78.928 Y115.842 E12.41980
G1 X95.280 Y115.842 E13.19284
G1 X95.280 Y109.802 E13.47838
G1 X89.863 Y109.802 E13.73445
G1 X89.863 Y101.463 E14.12868
G1 X104.880 Y101.463 E14.83860
G1 X104.880 Y115.842 E15.51837
G1 X113.375 Y115.842 E15.92001
G1 X113.375 Y118.671 E16.05378
G1 X116.184 Y118.671 E16.18658
G1 X116.184 Y121.528 E16.32166
G1 X118.875 Y121.528 E16.44883
G1 X118.875 Y124.386 E16.58391
G1 X121.072 Y124.386 E16.68780
G1 X121.072 Y126.843 E16.80397
G1 X118.875 Y126.843 E16.90787
G1 X118.875 Y129.700 E17.04294
G1 X116.184 Y129.700 E17.17012
G1 X116.184 Y132.557 E17.30519
G1 X113.375 Y132.557 E17.43799
G1 X113.375 Y135.442 E17.57437
G1 X109.880 Y135.442 E17.73963
G1 X109.880 Y143.785 E18.13407
G1 X104.932 Y143.785 E18.36796
G1 X104.530 Y143.785 F18000.000
G1 X104.368 Y143.572 F18000.000
G1 X79.440 Y118.644 E20.03730 F480.000
G1 X79.440 Y119.105 E20.05909
G1 X104.368 Y144.032 E21.72842
G1 X104.368 Y144.492 E21.75021
G1 X79.440 Y119.565 E23.41955
G1 X79.440 Y120.025 E23.44134
G1 X104.368 Y144.953 E25.11067
G1 X104.368 Y145.413 E25.13247
G1 X79.440 Y120.485 E26.80180
G1 X79.440 Y120.945 E26.82359
G1 X104.368 Y145.873 E28.49293
G1 X104.368 Y146.333 E28.51472
G1 X79.440 Y121.406 E30.18405
G1 X79.440 Y121.866 E30.20584
G1 X104.368 Y146.793 E31.87518
G1 X104.368 Y147.254 E31.89697
G1 X100.792 Y143.678 E32.13643
G1 X100.792 Y144.138 E32.15823
G1 X104.368 Y147.714 E32.39769
G1 X104.219 Y148.025 E32.41403
G1 X100.792 Y144.598 E32.64351
G1 X100.792 Y145.059 E32.66531
G1 X103.758 Y148.025 E32.86397
G1 X103.298 Y148.025 E32.88577
G1 X100.792 Y145.519 E33.05361
G1 X100.792 Y145.979 E33.07540
G1 X102.838 Y148.025 E33.21243
G1 X102.378 Y148.025 E33.23422
G1 X100.792 Y146.439 E33.34043
G1 X100.792 Y146.899 E33.36223
G1 X101.917 Y148.025 E33.43761
G1 X101.457 Y148.025 E33.45941
G1 X100.792 Y147.360 E33.50398
G1 X100.792 Y147.820 E33.52577
G1 X100.997 Y148.025 E33.53952
G1 X100.387 Y143.273 F18000.000
G1 X79.440 Y122.326 E34.94227 F480.000
G1 X79.440 Y122.786 E34.96407
G1 X99.927 Y143.273 E36.33600
G1 X99.466 Y143.273 E36.35779
G1 X79.440 Y123.247 E37.69891
G1 X79.440 Y123.707 E37.72070
G1 X99.006 Y143.273 E39.03099
G1 X98.546 Y143.273 E39.05279
G1 X90.792 Y135.519 E39.57206
G1 X90.792 Y135.979 E39.59386
G1 X98.086 Y143.273 E40.08231
G1 X97.625 Y143.273 E40.10411
G1 X90.792 Y136.439 E40.56174
G1 X90.792 Y136.899 E40.58354
G1 X97.165 Y143.273 E41.01036
G1 X96.705 Y143.273 E41.03215
G1 X90.792 Y137.360 E41.42815
G1 X90.792 Y137.820 E41.44994
G1 X96.245 Y143.273 E41.81512
G1 X95.785 Y143.273 E41.83691
G1 X90.792 Y138.280 E42.17128
G1 X90.792 Y138.740 E42.19307
G1 X95.324 Y143.273 E42.49661
G1 X94.864 Y143.273 E42.51840
G1 X90.792 Y139.200 E42.79113
G1 X90.792 Y139.661 E42.81292
G1 X94.404 Y143.273 E43.05482
G1 X93.944 Y143.273 E43.07662
G1 X90.792 Y140.121 E43.28770
G1 X90.792 Y140.581 E43.30949
G1 X93.484 Y143.273 E43.48976
G1 X93.023 Y143.273 E43.51155
G1 X90.792 Y141.041 E43.66100
G1 X90.792 Y141.502 E43.68279
G1 X92.563 Y143.273 E43.80142
G1 X92.103 Y143.273 E43.82321
G1 X90.792 Y141.962 E43.91102
G1 X90.792 Y142.422 E43.93281
G1 X91.643 Y143.273 E43.98980
G1 X91.182 Y143.273 E44.01159
G1 X90.792 Y142.882 E44.03776
G1 X90.203 Y134.930 F18000.000
G1 X79.440 Y124.167 E44.75851 F480.000
G1 X79.440 Y124.627 E44.78030
G1 X89.742 Y134.930 E45.47023
G1 X89.282 Y134.930 E45.49202
G1 X79.440 Y125.087 E46.15113
G1 X79.440 Y125.548 E46.17292
G1 X88.822 Y134.930 E46.80121
G1 X88.362 Y134.930 E46.82301
G1 X79.440 Y126.008 E47.42048
G1 X79.440 Y126.468 E47.44227
G1 X87.902 Y134.930 E48.00892
G1 X87.441 Y134.930 E48.03071
G1 X79.440 Y126.928 E48.56655
G1 X79.440 Y127.388 E48.58834
G1 X86.981 Y134.930 E49.09335
G1 X86.521 Y134.930 E49.11514
G1 X79.440 Y127.849 E49.58934
G1 X79.440 Y128.309 E49.61113
G1 X86.061 Y134.930 E50.05451
G1 X85.600 Y134.930 E50.07630
G1 X79.440 Y128.769 E50.48885
G1 X79.440 Y129.229 E50.51065
G1 X85.140 Y134.930 E50.89238
G1 X84.680 Y134.930 E50.91417
G1 X79.440 Y129.690 E51.26509
G1 X79.440 Y130.150 E51.28688
G1 X84.220 Y134.930 E51.60698
G1 X83.760 Y134.930 E51.62877
G1 X79.440 Y130.610 E51.91805
G1 X79.440 Y131.070 E51.93985
G1 X83.299 Y134.930 E52.19830
G1 X82.839 Y134.930 E52.22010
G1 X79.440 Y131.530 E52.44774
G1 X79.440 Y131.991 E52.46953
G1 X82.379 Y134.930 E52.66635
G1 X81.919 Y134.930 E52.68814
G1 X79.440 Y132.451 E52.85414
G1 X79.440 Y132.911 E52.87594
G1 X81.459 Y134.930 E53.01112
G1 X80.998 Y134.930 E53.03291
G1 X79.440 Y133.371 E53.13727
G1 X79.440 Y133.831 E53.15907
G1 X80.538 Y134.930 E53.23261
G1 X80.078 Y134.930 E53.25440
G1 X79.440 Y134.292 E53.29713
G1 X79.440 Y134.752 E53.31892
G1 X79.618 Y134.930 E53.33082
G1 E52.73082 F1440.00000
G92 E0
G1 Z0.550 F18000.000
G1 X91.080 Y142.985 F18000.000
G1 X100.736 Y134.642 F18000.000
G1 X102.580 Y136.660 F18000.000
G1 X104.080 Y137.985 F18000.000
G1 X104.080 Y142.985 F18000.000
G1 X104.529 Y143.273 F18000.000
G1 Z0.350 F18000.000
G1 E0.60000 F1440.00000
G1 X79.440 Y118.184 E2.28013 F480.000
G1 X79.440 Y117.724 E2.30192
G1 X104.989 Y143.273 E4.01286
G1 X105.449 Y143.273 E4.03466
G1 X79.440 Y117.264 E5.77642
G1 X79.440 Y116.804 E5.79821
G1 X105.909 Y143.273 E7.57080
G1 X106.370 Y143.273 E7.59259
G1 X79.450 Y116.354 E9.39529
G1 X79.911 Y116.354 E9.41708
G1 X106.830 Y143.273 E11.21978
G1 X107.290 Y143.273 E11.24157
G1 X80.371 Y116.354 E13.04427
G1 X80.831 Y116.354 E13.06606
G1 X107.750 Y143.273 E14.86876
G1 X108.210 Y143.273 E14.89055
G1 X81.291 Y116.354 E16.69325
G1 X81.751 Y116.354 E16.71505
G1 X108.671 Y143.273 E18.51774
G1 X109.131 Y143.273 E18.53954
G1 X82.212 Y116.354 E20.34224
G1 X82.672 Y116.354 E20.36403
G1 X109.368 Y143.049 E22.15176
G1 X109.368 Y142.589 E22.17355
G1 X83.132 Y116.354 E23.93046
G1 X83.592 Y116.354 E23.95225
G1 X109.368 Y142.129 E25.67835
G1 X109.368 Y141.669 E25.70014
G1 X84.053 Y116.354 E27.39541
G1 X84.513 Y116.354 E27.41720
G1 X109.368 Y141.209 E29.08166
G1 X109.368 Y140.748 E29.10345
G1 X84.973 Y116.354 E30.73708
G1 X85.433 Y116.354 E30.75888
G1 X109.368 Y140.288 E32.36169
G1 X109.368 Y139.828 E32.38348
G1 X85.893 Y116.354 E33.95548
G1 X86.354 Y116.354 E33.97727
G1 X109.368 Y139.368 E35.51845
G1 X109.368 Y138.907 E35.54024
G1 X86.814 Y116.354 E37.05060
G1 X87.274 Y116.354 E37.07239
G1 X109.368 Y138.447 E38.55193
G1 X109.368 Y137.987 E38.57372
G1 X87.734 Y116.354 E40.02244
G1 X88.194 Y116.354 E40.04423
G1 X109.368 Y137.527 E41.46213
G1 X109.368 Y137.067 E41.48392
G1 X88.655 Y116.354 E42.87100
G1 X89.115 Y116.354 E42.89279
G1 X109.368 Y136.606 E44.24905
G1 X109.368 Y136.146 E44.27085
G1 X89.575 Y116.354 E45.59629
G1 X90.035 Y116.354 E45.61808
G1 X109.368 Y135.686 E46.91270
G1 X109.368 Y135.226 E46.93449
G1 X90.496 Y116.354 E48.19830
G1 X90.956 Y116.354 E48.22009
G1 X109.532 Y134.930 E49.46406
G1 X109.992 Y134.930 E49.48585
G1 X91.416 Y116.354 E50.72982
G1 X91.876 Y116.354 E50.75162
G1 X110.452 Y134.930 E51.99559
G1 X110.912 Y134.930 E52.01738
G1 X92.336 Y116.354 E53.26135
G1 X92.797 Y116.354 E53.28314
G1 X111.372 Y134.930 E54.52712
G1 X111.833 Y134.930 E54.54891
G1 X93.257 Y116.354 E55.79288
G1 X93.717 Y116.354 E55.81467
G1 X112.293 Y134.930 E57.05864
G1 X112.753 Y134.930 E57.08044
G1 X94.177 Y116.354 E58.32441
G1 X94.637 Y116.354 E58.34620
G1 X112.863 Y134.580 E59.56673
G1 X112.863 Y134.119 E59.58852
G1 X95.098 Y116.354 E60.77823
G1 X95.558 Y116.354 E60.80002
G1 X112.863 Y133.659 E61.95891
G1 X112.863 Y133.199 E61.98070
G1 X95.792 Y116.127 E63.12393
G1 X95.792 Y115.667 E63.14573
G1 X112.863 Y132.739 E64.28896
G1 X112.863 Y132.278 E64.31075
G1 X95.792 Y115.207 E65.45398
G1 X95.792 Y114.747 E65.47578
G1 X113.090 Y132.045 E66.63419
G1 X113.550 Y132.045 E66.65598
G1 X95.792 Y114.287 E67.84521
G1 X95.792 Y113.826 E67.86700
G1 X114.010 Y132.045 E69.08705
G1 X114.471 Y132.045 E69.10884
G1 X95.792 Y113.366 E70.35971
G1 X95.792 Y112.906 E70.38150
G1 X114.931 Y132.045 E71.66319
G1 X115.391 Y132.045 E71.68498
G1 X95.792 Y112.446 E72.99749
G1 X95.792 Y111.985 E73.01928
G1 X115.672 Y131.866 E74.35063
G1 X115.672 Y131.406 E74.37242
G1 X95.792 Y111.525 E75.70377
G1 X95.792 Y111.065 E75.72557
G1 X115.672 Y130.946 E77.05691
G1 X115.672 Y130.485 E77.07871
G1 X95.792 Y110.605 E78.41005
G1 X95.792 Y110.145 E78.43185
G1 X115.672 Y130.025 E79.76319
G1 X115.672 Y129.565 E79.78499
G1 X95.792 Y109.684 E81.11634
G1 X90.795 Y109.290 F18000.000
G1 X90.375 Y108.870 E81.14444 F480.000
G1 X90.375 Y108.410 E81.16623
G1 X91.255 Y109.290 E81.22516
G1 X91.715 Y109.290 E81.24695
G1 X90.375 Y107.950 E81.33670
G1 X90.375 Y107.489 E81.35849
G1 X92.176 Y109.290 E81.47905
G1 X92.636 Y109.290 E81.50084
G1 X90.375 Y107.029 E81.65223
G1 X90.375 Y106.569 E81.67402
G1 X93.096 Y109.290 E81.85622
G1 X93.556 Y109.290 E81.87801
G1 X90.375 Y106.109 E82.09104
G1 X90.375 Y105.649 E82.11283
G1 X94.016 Y109.290 E82.35667
G1 X94.477 Y109.290 E82.37846
G1 X90.375 Y105.188 E82.65312
G1 X90.375 Y104.728 E82.67491
G1 X94.937 Y109.290 E82.98039
G1 X95.397 Y109.290 E83.00219
G1 X90.375 Y104.268 E83.33848
G1 X90.375 Y103.808 E83.36028
G1 X115.755 Y129.188 E85.05991
G1 X116.216 Y129.188 E85.08170
G1 X90.375 Y103.347 E86.81215
G1 X90.375 Y102.887 E86.83395
G1 X116.676 Y129.188 E88.59522
G1 X118.362 Y124.431 F18000.000
G1 X115.971 Y122.041 E88.75533 F480.000
G1 X115.672 Y121.741 F18000.000
G1 X113.114 Y119.183 E88.92663 F480.000
G1 X112.863 Y118.932 F18000.000
G1 X110.285 Y116.354 E89.09930 F480.000
G1 X110.745 Y116.354 E89.12110
G1 X112.863 Y118.472 E89.26295
G1 X112.863 Y118.012 E89.28474
G1 X111.205 Y116.354 E89.39578
G1 X111.665 Y116.354 E89.41757
G1 X112.863 Y117.552 E89.49778
G1 X112.863 Y117.091 E89.51957
G1 X112.126 Y116.354 E89.56897
G1 X112.586 Y116.354 E89.59076
G1 X112.863 Y116.631 E89.60934
G1 X113.575 Y119.183 F18000.000
G1 X115.672 Y121.281 E89.74982 F480.000
G1 X115.672 Y120.821 E89.77161
G1 X114.035 Y119.183 E89.88127
G1 X114.495 Y119.183 E89.90306
G1 X115.672 Y120.361 E89.98191
G1 X115.672 Y119.900 E90.00370
G1 X114.955 Y119.183 E90.05172
G1 X115.415 Y119.183 E90.07351
G1 X115.672 Y119.440 E90.09072
G1 X116.432 Y122.041 F18000.000
G1 X118.362 Y123.971 E90.22001 F480.000
G1 X118.362 Y123.511 E90.24181
G1 X116.892 Y122.041 E90.34028
G1 X117.352 Y122.041 E90.36208
G1 X118.362 Y123.051 E90.42973
G1 X118.362 Y122.591 E90.45153
G1 X117.812 Y122.041 E90.48836
G1 X118.075 Y122.328 F18000.000
G1 X115.212 Y125.186 F18000.000
G1 X118.075 Y125.614 F18000.000
G1 X119.844 Y125.614 F18000.000
G1 X120.272 Y125.186 F18000.000
G1 X120.560 Y125.249 F18000.000
G1 X120.209 Y124.898 E90.51186 F480.000
G1 X119.749 Y124.898 E90.53365
G1 X120.560 Y125.709 E90.58797
G1 X120.560 Y126.169 E90.60976
G1 X119.289 Y124.898 E90.69490
G1 X118.829 Y124.898 E90.71669
G1 X120.262 Y126.331 E90.81265
G1 X119.801 Y126.331 E90.83444
G1 X109.825 Y116.354 E91.50256
G1 X109.364 Y116.354 E91.52436
G1 X119.341 Y126.331 E92.19248
G1 X118.881 Y126.331 E92.21427
G1 X108.904 Y116.354 E92.88239
G1 X108.444 Y116.354 E92.90418
G1 X118.421 Y126.331 E93.57230
G1 X118.362 Y126.733 E93.59153
G1 X107.984 Y116.354 E94.28656
G1 X107.523 Y116.354 E94.30836
G1 X118.362 Y127.193 E95.03421
G1 X118.362 Y127.653 E95.05600
G1 X107.063 Y116.354 E95.81268
G1 X106.603 Y116.354 E95.83447
G1 X118.362 Y128.113 E96.62196
G1 X118.362 Y128.573 E96.64375
G1 X106.143 Y116.354 E97.46206
G1 X105.683 Y116.354 E97.48386
G1 X118.362 Y129.034 E98.33299
G1 X118.056 Y129.188 E98.34921
G1 X105.222 Y116.354 E99.20867
G1 X104.762 Y116.354 E99.23046
G1 X117.596 Y129.188 E100.08992
G1 X117.136 Y129.188 E100.11171
G1 X90.375 Y102.427 E101.90380
G1 X90.399 Y101.991 E101.92448
G1 X104.368 Y115.959 E102.85990
G1 X104.368 Y115.499 E102.88169
G1 X90.843 Y101.975 E103.78736
G1 X91.304 Y101.975 E103.80915
G1 X104.368 Y115.039 E104.68400
G1 X104.368 Y114.578 E104.70580
G1 X91.764 Y101.975 E105.54983
G1 X92.224 Y101.975 E105.57162
G1 X104.368 Y114.118 E106.38483
G1 X104.368 Y113.658 E106.40662
G1 X92.684 Y101.975 E107.18901
G1 X93.145 Y101.975 E107.21080
G1 X104.368 Y113.198 E107.96238
G1 X104.368 Y112.738 E107.98417
G1 X93.605 Y101.975 E108.70492
G1 X94.065 Y101.975 E108.72671
G1 X104.368 Y112.277 E109.41665
G1 X104.368 Y111.817 E109.43844
G1 X94.525 Y101.975 E110.09755
