; generated by Slic3r 1.2.9 on 2016-11-09 at 17:01:42

; external perimeters extrusion width = 0.35mm
; perimeters extrusion width = 0.59mm
; infill extrusion width = 0.98mm
; solid infill extrusion width = 0.59mm
; top infill extrusion width = 0.59mm

M107
M190 S70 ; set bed temperature
M104 S220 ; set temperature
G28 ; home all axes
G1 Z5 F5000 ; lift nozzle
M109 S220 ; wait for temperature to be reached
G21 ; set units to millimeters
G90 ; use absolute coordinates
M82 ; use absolute distances for extrusion
G92 E0
G1 Z0.350 F18000.000
G1 E-0.60000 F2400.00000
G92 E0
G1 X67.622 Y76.440 F18000.000
G1 E0.60000 F2400.00000
G1 X68.005 Y76.120 E0.64539 F1800.000
G1 X69.873 Y74.675 E0.86012
G1 X70.387 Y74.316 E0.91713
G1 X73.210 Y72.538 E1.22050
G1 X73.680 Y72.268 E1.26982
G1 X75.250 Y71.452 E1.43071
G1 X76.341 Y70.949 E1.53992
G1 X79.554 Y69.614 E1.85633
G1 X80.272 Y69.342 E1.92611
G1 X80.939 Y69.133 E1.98970
G1 X83.748 Y68.422 E2.25313
G1 X85.829 Y67.985 E2.44651
G1 X87.500 Y67.672 E2.60112
G1 X88.736 Y67.470 E2.71495
G1 X90.050 Y67.262 E2.83597
G1 X92.198 Y66.967 E3.03305
G1 X94.088 Y66.766 E3.20592
G1 X97.101 Y66.540 E3.48070
G1 X99.952 Y66.428 E3.74006
G1 X102.987 Y66.427 E4.01602
G1 X105.880 Y66.535 E4.27931 F1800.000
G1 X108.292 Y66.712 E4.49922
G1 X110.916 Y66.988 E4.73909
G1 X113.557 Y67.362 E4.98167
G1 X115.843 Y67.761 E5.19268
G1 X117.836 Y68.169 E5.37771
G1 X123.439 Y69.414 E5.89957
G1 X124.165 Y69.619 E5.96816
G1 X126.526 Y70.436 E6.19537
G1 X128.760 Y71.262 E6.41196
G1 X130.267 Y71.894 E6.56052
G1 X131.332 Y72.425 E6.66871
G1 X132.308 Y72.999 E6.77168
G1 X132.820 Y73.346 E6.82791
G1 X133.592 Y73.920 E6.91541
G1 X134.365 Y74.576 E7.00759
G1 X134.977 Y75.149 E7.08378
G1 X135.770 Y75.999 E7.18956
G1 X136.397 Y76.766 E7.27957
G1 X137.090 Y77.735 E7.38791
G1 X137.438 Y78.291 E7.44755
G1 X137.760 Y78.868 E7.50766
G1 X138.030 Y79.409 E7.56263
G1 X138.676 Y80.863 E7.70732
G1 X138.968 Y81.649 E7.78350
G1 X139.394 Y83.079 E7.91922
G1 X145.851 Y106.870 E10.16078
G1 X146.031 Y107.787 E10.24573
G1 X147.158 Y116.836 E11.07492
G1 X147.976 Y123.942 E11.72530
G1 X148.013 Y124.420 E11.76891
G1 X148.245 Y129.911 E12.26873
G1 X148.250 Y130.343 E12.30801
G1 X148.099 Y136.895 E12.90388
G1 X148.074 Y137.341 E12.94454
G1 X147.564 Y142.959 E13.45741
G1 X147.510 Y143.394 E13.49727
G1 X146.527 Y149.618 E14.07032
G1 X146.429 Y150.115 E14.11635
G1 X145.486 Y154.087 E14.48755
G1 X145.346 Y154.587 E14.53473
G1 X144.491 Y157.223 E14.78672
G1 X143.578 Y159.688 E15.02581
G1 X142.863 Y161.263 E15.18300
G1 X142.639 Y161.704 E15.22799
G1 X142.005 Y162.835 E15.34596
G1 X141.416 Y163.798 E15.44856
G1 X141.192 Y164.132 E15.48515
G1 X140.459 Y165.126 E15.59746
G1 X139.445 Y166.349 E15.74190
G1 X138.500 Y167.415 E15.87144
G1 X136.867 Y169.038 E16.08081
G1 X136.168 Y169.637 E16.16446
G1 X133.048 Y171.956 E16.51799
G1 X132.564 Y172.283 E16.57109
G1 X128.994 Y174.463 E16.95139
G1 X125.332 Y176.423 E17.32909
G1 X124.766 Y176.693 E17.38615
G1 X120.976 Y178.280 E17.75972
G1 X120.495 Y178.460 E17.80649
G1 X116.484 Y179.771 E18.19016
G1 X112.848 Y180.726 E18.53199
G1 X112.279 Y180.849 E18.58492
G1 X108.284 Y181.530 E18.95347
G1 X107.809 Y181.593 E18.99703
G1 X103.728 Y181.988 E19.36987
G1 X100.187 Y182.126 E19.69202
G1 X99.714 Y182.126 E19.73511
G1 X96.173 Y181.986 E20.05726
G1 X92.093 Y181.588 E20.43008
G1 X91.618 Y181.524 E20.47365
G1 X87.623 Y180.840 E20.84218
G1 X87.054 Y180.716 E20.89514
G1 X83.024 Y179.642 E21.27437
G1 X79.411 Y178.445 E21.62049
G1 X78.929 Y178.264 E21.66730
G1 X75.142 Y176.674 E22.04078
G1 X74.575 Y176.403 E22.09790
G1 X70.574 Y174.244 E22.51128
G1 X67.349 Y172.258 E22.85571
G1 X66.865 Y171.929 E22.90890
G1 X63.748 Y169.608 E23.26229
G1 X63.049 Y169.007 E23.34613
G1 X60.713 Y166.698 E23.64476
G1 X59.982 Y165.841 E23.74719
G1 X58.129 Y163.252 E24.03669
G1 X57.496 Y162.161 E24.15133
G1 X55.459 Y157.725 E24.59520
G1 X55.031 Y156.475 E24.71537
G1 X53.525 Y150.063 E25.31431
G1 X53.428 Y149.565 E25.36040
G1 X52.460 Y143.336 E25.93357
G1 X52.407 Y142.901 E25.97345
G1 X51.912 Y137.280 E26.48654
G1 X51.888 Y136.834 E26.52720
G1 X51.754 Y130.278 E27.12343
G1 X51.759 Y129.846 E27.16271
G1 X52.006 Y124.350 E27.66292
G1 X52.045 Y123.873 E27.70650
G1 X52.899 Y116.632 E28.36945
G1 X54.129 Y107.702 E29.18915
G1 X55.331 Y99.666 E29.92797
G1 X55.903 Y96.149 E30.25200
G1 X56.057 Y95.447 E30.31729
G1 X56.978 Y92.188 E30.62527
G1 X57.200 Y91.538 E30.68771
G1 X58.128 Y89.223 E30.91453
G1 X58.646 Y88.114 E31.02578
G1 X59.264 Y86.851 E31.15363
G1 X59.532 Y86.358 E31.20469
G1 X60.914 Y84.073 E31.44752
G1 X62.203 Y82.206 E31.65377
G1 X62.548 Y81.752 E31.70567
G1 X63.997 Y80.013 E31.91147
G1 X65.698 Y78.203 E32.13736
G1 X66.047 Y77.863 E32.18159
G1 X67.583 Y76.475 E32.36986
G1 E31.76986 F2400.00000
G92 E0
G1 X132.383 Y111.313 F18000.000
G1 E0.60000 F2400.00000
G1 X131.439 Y110.859 E0.69524 F1800.000
G1 X131.206 Y109.838 E0.79047
G1 X131.859 Y109.019 E0.88570
G1 X132.906 Y109.019 E0.98094 F1800.000
G1 X133.559 Y109.838 E1.07617
G1 X133.326 Y110.859 E1.17140
G1 X132.430 Y111.290 E1.26186
G1 X132.383 Y110.620 F18000.000
G1 X131.981 Y110.426 E1.30237 F1800.000
G1 X131.882 Y109.992 E1.34288
G1 X132.160 Y109.644 E1.38338
G1 X132.605 Y109.644 E1.42389 F1800.000
G1 X132.883 Y109.992 E1.46440
G1 X132.784 Y110.426 E1.50490
G1 X132.430 Y110.597 E1.54064
G1 X132.164 Y110.893 F18000.000
G1 X107.920 Y80.390 F18000.000
G1 X107.106 Y80.860 E1.62609 F1800.000
G1 X106.180 Y81.023 E1.71154
G1 X105.833 Y80.962 E1.74359
G1 X105.255 Y80.860 E1.79700
G1 X104.441 Y80.390 E1.88245
G1 X103.837 Y79.670 E1.96791
G1 X103.515 Y78.787 E2.05336
G1 X103.515 Y77.847 E2.13881
G1 X103.837 Y76.964 E2.22427
G1 X104.428 Y76.260 E2.30792
G1 X105.289 Y75.763 E2.39830
G1 X105.611 Y75.706 E2.42808
G1 X106.163 Y75.608 E2.47903 F1800.000
G1 X107.106 Y75.775 E2.56605
G1 X107.920 Y76.244 E2.65150
G1 X108.524 Y76.964 E2.73696
G1 X108.845 Y77.847 E2.82241
G1 X108.845 Y78.787 E2.90786
G1 X108.524 Y79.670 E2.99331
G1 X107.953 Y80.350 E3.07399
G1 X107.512 Y79.904 F18000.000
G1 X106.889 Y80.264 E3.13941 F1800.000
G1 X106.180 Y80.389 E3.20482
G1 X105.942 Y80.347 E3.22685
G1 X105.472 Y80.264 E3.27024
G1 X104.849 Y79.904 E3.33565
G1 X104.386 Y79.353 E3.40107
G1 X104.140 Y78.677 E3.46649
G1 X104.140 Y77.958 E3.53190
G1 X104.386 Y77.282 E3.59732
G1 X104.836 Y76.746 E3.66093
G1 X105.506 Y76.359 E3.73128
G1 X105.720 Y76.321 E3.75105
G1 X106.163 Y76.243 E3.79197 F1800.000
G1 X106.889 Y76.371 E3.85894
G1 X107.512 Y76.731 E3.92436
G1 X107.974 Y77.282 E3.98978
G1 X108.220 Y77.958 E4.05519
G1 X108.220 Y78.677 E4.12061
G1 X107.974 Y79.353 E4.18602
G1 X107.545 Y79.864 E4.24666
G1 X107.552 Y80.252 F18000.000
G1 X74.417 Y108.394 F18000.000
G1 X75.445 Y109.683 E4.39662 F1800.000
G1 X75.078 Y111.291 E4.54659
G1 X73.592 Y112.007 E4.69655
G1 X72.106 Y111.291 E4.84651
G1 X71.739 Y109.683 E4.99647
G1 X72.767 Y108.394 E5.14643
G1 X74.364 Y108.394 E5.29162 F1800.000
G1 X74.116 Y109.019 F18000.000
G1 X74.769 Y109.838 E5.38685 F1800.000
G1 X74.536 Y110.859 E5.48208
G1 X73.592 Y111.313 E5.57732
G1 X72.648 Y110.859 E5.67255
G1 X72.415 Y109.838 E5.76779
G1 X73.068 Y109.019 E5.86302
G1 X74.063 Y109.019 E5.95348 F1800.000
G1 X73.815 Y109.644 F18000.000
G1 X74.093 Y109.992 E5.99399 F1800.000
G1 X73.993 Y110.426 E6.03449
G1 X73.592 Y110.620 E6.07500
G1 X73.191 Y110.426 E6.11551
G1 X73.092 Y109.992 E6.15601
G1 X73.369 Y109.644 E6.19652
G1 X73.762 Y109.644 E6.23225 F1800.000
G1 X74.130 Y109.492 F18000.000
G1 X98.103 Y85.544 F18000.000
G1 X98.304 Y83.443 E6.42420 F1800.000
G1 X98.824 Y82.188 E6.54775
G1 X101.622 Y82.188 E6.80213
G1 X101.612 Y85.546 E7.10744
G1 X98.155 Y85.544 E7.42171
G1 X98.790 Y84.920 F18000.000
G1 X98.917 Y83.596 E7.54264 F1800.000
G1 X99.241 Y82.813 E7.61971
G1 X100.995 Y82.813 E7.77915
G1 X100.989 Y84.921 E7.97081
G1 X98.843 Y84.920 E8.16592
G1 X99.478 Y84.295 F18000.000
G1 X99.530 Y83.749 E8.21585 F1800.000
G1 X99.659 Y83.438 E8.24644
G1 X100.368 Y83.438 E8.31095
G1 X100.366 Y84.296 E8.38894
G1 X99.530 Y84.295 E8.46490
G1 X99.128 Y84.273 F18000.000
G1 X131.515 Y97.004 F18000.000
G1 X132.070 Y97.230 E8.51939 F1800.000
G1 X132.315 Y97.711 E8.56851
G1 X134.188 Y97.702 E8.73876
G1 X134.184 Y109.216 E9.78575
G1 X133.933 Y109.304 E9.80993
G1 X133.207 Y108.394 E9.91576
G1 X131.558 Y108.394 E10.06572
G1 X130.530 Y109.683 E10.21568
G1 X130.897 Y111.291 E10.36564
G1 X132.383 Y112.007 E10.51561
G1 X133.869 Y111.291 E10.66557
G1 X134.206 Y109.813 E10.80345
G1 X136.462 Y109.814 E11.00860
G1 X137.742 Y109.983 E11.12603
G1 X137.742 Y111.819 E11.29291
G1 X137.965 Y112.166 E11.33041
G1 X138.142 Y112.812 E11.39134
G1 X138.992 Y117.819 E11.85315
G1 X139.798 Y124.825 E12.49439
G1 X140.026 Y130.207 E12.98420
G1 X139.878 Y136.652 E13.57041
G1 X139.378 Y142.163 E14.07355
G1 X138.412 Y148.275 E14.63621
G1 X137.498 Y152.126 E14.99615
G1 X136.764 Y154.407 E15.21403
G1 X135.961 Y156.582 E15.42482
G1 X135.420 Y157.763 E15.54296
G1 X134.965 Y158.582 E15.62817
G1 X134.492 Y159.357 E15.71072
G1 X134.078 Y159.937 E15.77552
G1 X133.272 Y160.914 E15.89071
G1 X132.430 Y161.863 E16.00605
G1 X131.173 Y163.102 E16.16654
G1 X128.199 Y165.312 E16.50349
G1 X125.071 Y167.234 E16.83728
G1 X121.518 Y169.136 E17.20375
G1 X117.856 Y170.670 E17.56477
G1 X114.347 Y171.829 E17.90078
G1 X110.828 Y172.753 E18.23163
G1 X106.959 Y173.413 E18.58851
G1 X102.984 Y173.797 E18.95163
G1 X99.953 Y173.905 E19.22737
G1 X96.923 Y173.795 E19.50310
G1 X92.949 Y173.407 E19.86620
G1 X89.081 Y172.745 E20.22303
G1 X85.563 Y171.818 E20.55382
G1 X82.056 Y170.657 E20.88976
G1 X78.396 Y169.120 E21.25068
G1 X74.846 Y167.215 E21.61703
G1 X71.721 Y165.291 E21.95071
G1 X68.751 Y163.078 E22.28752
G1 X66.591 Y160.944 E22.56359
G1 X64.907 Y158.590 E22.82677
G1 X63.001 Y154.439 E23.24215
G1 X61.546 Y148.242 E23.82095
G1 X60.596 Y142.126 E24.38374
G1 X60.110 Y136.612 E24.88709
G1 X59.978 Y130.162 E25.47367
G1 X60.220 Y124.777 E25.96387
G1 X61.045 Y117.768 E26.60562
G1 X61.740 Y113.779 E26.97378
G1 X62.712 Y111.345 E27.21209
G1 X62.842 Y111.304 E27.22445
G1 X62.842 Y107.917 E27.53241
G1 X62.776 Y107.897 E27.53867
G1 X62.770 Y107.569 E27.56846
G1 X63.839 Y106.878 E27.68420
G1 X62.839 Y105.942 E27.80882
G1 X63.458 Y100.929 E28.26808
G1 X64.005 Y97.566 E28.57794
G1 X64.866 Y94.518 E28.86591
G1 X65.741 Y92.335 E29.07978
G1 X66.243 Y91.305 E29.18395
G1 X66.533 Y91.372 E29.21108
G1 X66.533 Y91.906 E29.25961
G1 X66.926 Y92.986 E29.36410
G1 X67.672 Y93.874 E29.46959
G1 X68.677 Y94.454 E29.57509
G1 X69.819 Y94.656 E29.68058
G1 X70.962 Y94.454 E29.78607
G1 X71.958 Y93.879 E29.89064
G1 X72.722 Y92.968 E29.99875
G1 X73.109 Y91.905 E30.10163
G1 X73.109 Y90.735 E30.20802
G1 X72.712 Y89.645 E30.31351
G1 X71.967 Y88.756 E30.41901
G1 X70.962 Y88.176 E30.52450
G1 X69.819 Y87.975 E30.62999
G1 X68.677 Y88.176 E30.73548
G1 X68.268 Y88.412 E30.77843
G1 X68.064 Y88.192 E30.80570
G1 X68.917 Y86.957 E30.94213
G1 X70.278 Y85.324 E31.13549
G1 X71.611 Y83.920 E31.31146
G1 X73.086 Y82.587 E31.49230
G1 X74.837 Y81.234 E31.69344
G1 X77.539 Y79.531 E31.98388
G1 X78.628 Y78.963 E32.09560
G1 X79.569 Y78.515 E32.19032
G1 X82.498 Y77.294 E32.47894
G1 X83.063 Y77.080 E32.53384
G1 X85.676 Y76.417 E32.77893
G1 X87.360 Y76.066 E32.93537
G1 X88.975 Y75.764 E33.08482
G1 X91.197 Y75.407 E33.28939
G1 X93.127 Y75.139 E33.46660
G1 X94.739 Y74.965 E33.61401
G1 X97.463 Y74.757 E33.86240
G1 X100.514 Y74.648 E34.14002
G1 X102.943 Y74.652 E34.36092
G1 X105.498 Y74.751 E34.59342
G1 X105.521 Y75.087 E34.62405
G1 X105.072 Y75.167 E34.66553
G1 X104.020 Y75.774 E34.77594
G1 X103.287 Y76.647 E34.87963
G1 X102.890 Y77.737 E34.98513
G1 X102.890 Y78.897 E35.09062
G1 X103.287 Y79.988 E35.19611
G1 X104.033 Y80.876 E35.30160
G1 X105.038 Y81.456 E35.40709
G1 X106.180 Y81.658 E35.51258
G1 X107.323 Y81.456 E35.61808
G1 X108.327 Y80.876 E35.72357
G1 X109.073 Y79.988 E35.82906
G1 X109.470 Y78.897 E35.93455
G1 X109.470 Y77.737 E36.04004
G1 X109.073 Y76.647 E36.14553
G1 X108.327 Y75.758 E36.25102
G1 X107.326 Y75.180 E36.35620
G1 X107.414 Y74.894 E36.38340
G1 X110.018 Y75.163 E36.62147
G1 X112.363 Y75.500 E36.83687
G1 X114.396 Y75.857 E37.02456
G1 X116.155 Y76.220 E37.18784
G1 X117.941 Y76.631 E37.35454
G1 X120.243 Y77.242 E37.57106
G1 X121.992 Y77.779 E37.73747
G1 X122.189 Y77.638 E37.75948
G1 X123.714 Y78.165 E37.90622
G1 X125.855 Y78.957 E38.11374
G1 X126.717 Y79.313 E38.19856
G1 X127.343 Y79.617 E38.26180
G1 X127.755 Y79.849 E38.30484
G1 X128.176 Y80.134 E38.35106
G1 X128.558 Y80.424 E38.39468
G1 X129.287 Y81.090 E38.48440
G1 X129.624 Y81.464 E38.53021
G1 X129.940 Y81.861 E38.57635
G1 X130.296 Y82.371 E38.63288
G1 X130.544 Y82.815 E38.67913
G1 X131.119 Y84.109 E38.80795
G1 X131.433 Y85.156 E38.90732
G1 X131.553 Y86.021 E38.98670
G1 X131.524 Y87.492 E39.12053
G1 X131.515 Y96.951 E39.98061
G1 X72.484 Y91.795 F18000.000
G1 X72.172 Y92.651 E40.06346 F1800.000
G1 X71.550 Y93.393 E40.15154
G1 X70.745 Y93.858 E40.23607
G1 X69.819 Y94.021 E40.32152
G1 X68.894 Y93.858 E40.40697
G1 X68.080 Y93.388 E40.49243
G1 X67.476 Y92.668 E40.57788
G1 X67.158 Y91.796 E40.66233
G1 X67.158 Y90.825 E40.75060
G1 X67.469 Y89.970 E40.83328
G1 X68.080 Y89.242 E40.91968
G1 X68.894 Y88.773 E41.00513
G1 X69.241 Y88.711 E41.03718
G1 X69.819 Y88.609 E41.09059 F1800.000
G1 X70.745 Y88.773 E41.17604
G1 X71.559 Y89.242 E41.26149
G1 X72.163 Y89.962 E41.34695
G1 X72.484 Y90.845 E41.43240
G1 X72.484 Y91.742 E41.51397
G1 X71.859 Y91.685 F18000.000
G1 X71.623 Y92.334 E41.57680 F1800.000
G1 X71.142 Y92.907 E41.64485
G1 X70.528 Y93.262 E41.70932
G1 X69.819 Y93.387 E41.77474
G1 X69.111 Y93.262 E41.84015
G1 X68.488 Y92.902 E41.90557
G1 X68.025 Y92.351 E41.97098
G1 X67.783 Y91.685 E42.03539
G1 X67.783 Y90.935 E42.10363
G1 X68.019 Y90.287 E42.16628
G1 X68.488 Y89.728 E42.23263
G1 X69.111 Y89.369 E42.29805
G1 X69.349 Y89.327 E42.32007
G1 X69.819 Y89.244 E42.36346 F1800.000
G1 X70.528 Y89.369 E42.42888
G1 X71.151 Y89.728 E42.49429
G1 X71.613 Y90.280 E42.55971
G1 X71.859 Y90.956 E42.62512
G1 X71.859 Y91.632 E42.68664
G1 X72.114 Y91.925 F18000.000
G1 X62.828 Y106.788 F18000.000
G1 X62.188 Y106.189 E42.76635 F1800.000
G1 X62.238 Y105.653 E42.81527
G1 X62.839 Y100.840 E43.25631
G1 X63.394 Y97.430 E43.57047
G1 X64.274 Y94.317 E43.86469
G1 X65.169 Y92.082 E44.08362
G1 X66.073 Y90.226 E44.27127
G1 X67.202 Y88.341 E44.47108
G1 X68.419 Y86.579 E44.66580
G1 X69.811 Y84.908 E44.86357
G1 X71.174 Y83.473 E45.04355
G1 X72.685 Y82.107 E45.22874
G1 X74.478 Y80.721 E45.43479
G1 X77.227 Y78.989 E45.73028
G1 X78.349 Y78.404 E45.84532
G1 X79.314 Y77.944 E45.94248
G1 X82.267 Y76.713 E46.23345
G1 X82.875 Y76.483 E46.29252
G1 X85.535 Y75.808 E46.54208
G1 X87.239 Y75.453 E46.70031
G1 X88.868 Y75.148 E46.85106
G1 X91.104 Y74.789 E47.05698
G1 X93.051 Y74.519 E47.23566
G1 X94.682 Y74.342 E47.38482
G1 X97.428 Y74.133 E47.63526
G1 X100.503 Y74.023 E47.91509
G1 X102.956 Y74.027 E48.13811
G1 X105.567 Y74.128 E48.37575
G1 X107.706 Y74.290 E48.57077
G1 X110.096 Y74.543 E48.78928
G1 X112.462 Y74.883 E49.00662
G1 X114.513 Y75.243 E49.19604
G1 X116.288 Y75.610 E49.36081
G1 X118.090 Y76.024 E49.52893
G1 X120.418 Y76.642 E49.74793
G1 X121.880 Y77.091 E49.88702
G1 X122.088 Y76.942 E49.91027
G1 X123.925 Y77.577 E50.08699
G1 X126.083 Y78.375 E50.29621
G1 X126.973 Y78.743 E50.38381
G1 X127.632 Y79.063 E50.45046
G1 X128.084 Y79.317 E50.49756
G1 X128.541 Y79.626 E50.54768
G1 X128.959 Y79.944 E50.59544
G1 X129.731 Y80.649 E50.69052
G1 X130.100 Y81.060 E50.74077
G1 X130.441 Y81.486 E50.79044
G1 X130.826 Y82.039 E50.85166
G1 X131.103 Y82.535 E50.90332
G1 X131.706 Y83.892 E51.03834
G1 X132.045 Y85.023 E51.14567
G1 X132.179 Y85.984 E51.23392
G1 X132.149 Y87.499 E51.37171
G1 X132.140 Y96.584 E52.19780
G1 X132.521 Y96.739 E52.23520
G1 X132.697 Y97.084 E52.27044
G1 X134.813 Y97.074 E52.46279
G1 X134.809 Y109.188 E53.56438
G1 X136.503 Y109.190 E53.71846
G1 X138.367 Y109.436 E53.88942
G1 X138.367 Y111.635 E54.08943
G1 X138.543 Y111.908 E54.11894
G1 X138.753 Y112.677 E54.19139
G1 X139.611 Y117.731 E54.65755
G1 X140.422 Y124.776 E55.30236
G1 X140.651 Y130.201 E55.79608
G1 X140.502 Y136.687 E56.38607
G1 X139.998 Y142.240 E56.89301
