; generated by Slic3r 1.2.9 on 2016-11-10 at 19:34:53

; external perimeters extrusion width = 0.35mm
; perimeters extrusion width = 0.59mm
; infill extrusion width = 0.98mm
; solid infill extrusion width = 0.59mm
; top infill extrusion width = 0.59mm

M190 S70 ; set bed temperature
M104 S220 ; set temperature
G28 ; home all axes
G1 Z5 F5000 ; lift nozzle
M109 S220 ; wait for temperature to be reached
G21 ; set units to millimeters
G90 ; use absolute coordinates
M82 ; use absolute distances for extrusion
G92 E0
G1 Z0.200 F18000.000
G1 E-0.60000 F1440.00000
G92 E0
G1 Z0.400 F18000.000
G1 X80.897 Y96.765 F18000.000
G1 Z0.200 F18000.000
G1 E0.60000 F1440.00000
G1 X82.119 Y95.806 E0.66213 F1080.000
G1 X82.623 Y95.455 E0.68670
G1 X84.130 Y94.505 E0.75796
G1 X84.590 Y94.241 E0.77914
G1 X85.442 Y93.798 E0.81759
G1 X86.221 Y93.438 E0.85191
G1 X87.970 Y92.712 E0.92766
G1 X88.449 Y92.533 E0.94811
G1 X89.078 Y92.335 E0.97447
G1 X90.626 Y91.945 E1.03833
G1 X91.913 Y91.673 E1.09095
G1 X92.949 Y91.485 E1.13308
G1 X94.160 Y91.292 E1.18210
G1 X95.511 Y91.106 E1.23666
G1 X96.623 Y90.989 E1.28140
G1 X98.333 Y90.862 E1.34997
G1 X99.859 Y90.802 E1.41105
G1 X101.599 Y90.800 E1.48067
G1 X103.251 Y90.859 E1.54681 F1080.000
G1 X104.646 Y90.960 E1.60275
G1 X106.135 Y91.115 E1.66260
G1 X107.652 Y91.329 E1.72392
G1 X108.963 Y91.555 E1.77710
G1 X110.210 Y91.811 E1.82805
G1 X113.154 Y92.467 E1.94867
G1 X113.860 Y92.667 E1.97804
G1 X115.163 Y93.118 E2.03320
G1 X116.583 Y93.648 E2.09380
G1 X117.436 Y94.013 E2.13092
G1 X118.161 Y94.379 E2.16343
G1 X118.889 Y94.813 E2.19732
G1 X119.708 Y95.400 E2.23763
G1 X120.459 Y96.044 E2.27720
G1 X121.055 Y96.637 E2.31080
G1 X121.522 Y97.173 E2.33925
G1 X121.981 Y97.769 E2.36936
G1 X122.211 Y98.100 E2.38548
G1 X122.724 Y98.953 E2.42529
G1 X122.989 Y99.482 E2.44895
G1 X123.334 Y100.259 E2.48295
G1 X123.618 Y101.028 E2.51574
G1 X123.821 Y101.702 E2.54391
G1 X127.312 Y114.559 E3.07679
G1 X127.489 Y115.455 E3.11335
G1 X128.085 Y120.247 E3.30650
G1 X128.529 Y124.097 E3.46152
G1 X128.566 Y124.565 E3.48029
G1 X128.690 Y127.495 E3.59759
G1 X128.613 Y131.412 E3.75432
G1 X128.589 Y131.849 E3.77182
G1 X128.317 Y134.846 E3.89219
G1 X128.264 Y135.272 E3.90934
G1 X127.739 Y138.592 E4.04382
G1 X127.643 Y139.078 E4.06364
G1 X127.140 Y141.199 E4.15080
G1 X127.004 Y141.684 E4.17096
G1 X126.508 Y143.211 E4.23518
G1 X125.998 Y144.583 E4.29372
G1 X125.549 Y145.583 E4.33758
G1 X125.331 Y146.011 E4.35680
G1 X124.932 Y146.720 E4.38935
G1 X124.375 Y147.596 E4.43087
G1 X123.865 Y148.283 E4.46507
G1 X123.407 Y148.839 E4.49390
G1 X122.804 Y149.525 E4.53043
G1 X121.741 Y150.597 E4.59082
G1 X121.057 Y151.183 E4.62684
G1 X119.392 Y152.420 E4.70984
G1 X118.918 Y152.741 E4.73270
G1 X116.862 Y153.991 E4.82897
G1 X114.907 Y155.037 E4.91763
G1 X114.353 Y155.300 E4.94218
G1 X112.331 Y156.148 E5.02987
G1 X111.860 Y156.324 E5.05000
G1 X109.544 Y157.076 E5.14739
G1 X107.604 Y157.585 E5.22762
G1 X107.047 Y157.705 E5.25041
G1 X104.915 Y158.069 E5.33692
G1 X104.450 Y158.131 E5.35567
G1 X102.273 Y158.341 E5.44318
G1 X100.204 Y158.427 E5.52600
G1 X99.741 Y158.427 E5.54454
G1 X97.672 Y158.340 E5.62735
G1 X95.495 Y158.127 E5.71486
G1 X95.030 Y158.065 E5.73361
G1 X92.899 Y157.700 E5.82011
G1 X92.342 Y157.579 E5.84292
G1 X90.015 Y156.954 E5.93927
G1 X88.087 Y156.315 E6.02051
G1 X87.616 Y156.138 E6.04066
G1 X85.595 Y155.289 E6.12833
G1 X85.040 Y155.025 E6.15291
G1 X82.754 Y153.785 E6.25694
G1 X81.033 Y152.725 E6.33779
G1 X80.559 Y152.404 E6.36068
G1 X78.896 Y151.165 E6.44365
G1 X78.212 Y150.577 E6.47973
G1 X76.964 Y149.345 E6.54988
G1 X76.249 Y148.506 E6.59396
G1 X75.260 Y147.123 E6.66198
G1 X74.641 Y146.056 E6.71132
G1 X73.553 Y143.688 E6.81556
G1 X73.134 Y142.465 E6.86727
G1 X72.330 Y139.043 E7.00787
G1 X72.235 Y138.557 E7.02770
G1 X71.719 Y135.234 E7.16222
G1 X71.667 Y134.808 E7.17938
G1 X71.403 Y131.809 E7.29979
G1 X71.379 Y131.372 E7.31729
G1 X71.313 Y127.452 E7.47411
G1 X71.445 Y124.520 E7.59150
G1 X71.483 Y124.053 E7.61026
G1 X71.939 Y120.185 E7.76605
G1 X72.580 Y115.250 E7.96511
G1 X73.554 Y109.131 E8.21293
G1 X73.705 Y108.445 E8.24103
G1 X73.888 Y107.784 E8.26848
G1 X74.201 Y106.686 E8.31415
G1 X74.418 Y106.049 E8.34106
G1 X74.914 Y104.813 E8.39435
G1 X75.608 Y103.349 E8.45916
G1 X75.870 Y102.866 E8.48114
G1 X76.493 Y101.825 E8.52966
G1 X77.405 Y100.480 E8.59465
G1 X77.743 Y100.036 E8.61698
G1 X78.788 Y98.801 E8.68169
G1 X79.557 Y97.991 E8.72638
G1 X79.898 Y97.658 E8.74541
G1 X80.857 Y96.799 E8.79693
G1 E8.19693 F1440.00000
G92 E0
G1 Z0.400 F18000.000
G1 X84.854 Y108.175 F18000.000
G1 Z0.200 F18000.000
G1 E0.60000 F1440.00000
G1 X84.412 Y108.431 E0.62045 F630.000
G1 X83.904 Y108.520 E0.64109
G1 X83.396 Y108.431 E0.66172
G1 X82.949 Y108.173 E0.68236
G1 X82.617 Y107.777 E0.70299
G1 X82.443 Y107.297 E0.72343
G1 X82.443 Y106.768 E0.74461
G1 X82.614 Y106.296 E0.76471
G1 X82.955 Y105.890 E0.78588
G1 X83.434 Y105.632 E0.80766
G1 X83.904 Y105.549 E0.82673 F630.000
G1 X84.412 Y105.639 E0.84736
G1 X84.858 Y105.897 E0.86800
G1 X85.190 Y106.292 E0.88863
G1 X85.366 Y106.777 E0.90926
G1 X85.366 Y107.297 E0.93007
G1 X85.194 Y107.770 E0.95020
G1 X84.888 Y108.135 E0.96925
G1 X84.597 Y107.868 F18000.000
G1 X84.275 Y108.055 E0.97875 F630.000
G1 X83.904 Y108.120 E0.98838
G1 X83.532 Y108.055 E0.99800
G1 X83.206 Y107.866 E1.00762
G1 X82.964 Y107.577 E1.01724
G1 X82.837 Y107.228 E1.02674
G1 X82.837 Y106.837 E1.03672
G1 X82.961 Y106.496 E1.04600
G1 X83.208 Y106.201 E1.05581
G1 X83.565 Y106.009 E1.06616
G1 X83.904 Y105.950 E1.07494 F630.000
G1 X84.275 Y106.015 E1.08456
G1 X84.601 Y106.204 E1.09419
G1 X84.843 Y106.492 E1.10381
G1 X84.972 Y106.846 E1.11343
G1 X84.972 Y107.228 E1.12317
G1 X84.848 Y107.570 E1.13247
G1 X84.631 Y107.828 E1.14108
G1 X84.638 Y108.216 F18000.000
G1 X102.010 Y100.845 F18000.000
G1 X101.833 Y100.361 E1.16171 F630.000
G1 X101.833 Y99.845 E1.18235
G1 X102.010 Y99.360 E1.20298
G1 X102.340 Y98.966 E1.22355
G1 X102.836 Y98.696 E1.24613
G1 X103.289 Y98.616 E1.26452 F630.000
G1 X103.804 Y98.707 E1.28546
G1 X104.251 Y98.965 E1.30609
G1 X104.582 Y99.360 E1.32672
G1 X104.759 Y99.845 E1.34736
G1 X104.759 Y100.361 E1.36799
G1 X104.582 Y100.845 E1.38863
G1 X104.251 Y101.240 E1.40926
G1 X103.796 Y101.503 E1.43025
G1 X103.258 Y101.581 E1.45203
G1 X102.788 Y101.498 E1.47110
G1 X102.341 Y101.240 E1.49173
G1 X102.044 Y100.885 E1.51027
G1 X102.356 Y100.645 F18000.000
G1 X102.227 Y100.291 E1.51989 F630.000
G1 X102.227 Y99.914 E1.52951
G1 X102.356 Y99.560 E1.53914
G1 X102.594 Y99.276 E1.54859
G1 X102.968 Y99.073 E1.55946
G1 X103.289 Y99.016 E1.56777 F630.000
G1 X103.667 Y99.083 E1.57759
G1 X103.994 Y99.271 E1.58721
G1 X104.236 Y99.560 E1.59684
G1 X104.365 Y99.914 E1.60646
G1 X104.365 Y100.291 E1.61608
G1 X104.236 Y100.645 E1.62571
G1 X103.994 Y100.934 E1.63533
G1 X103.665 Y101.124 E1.64502
G1 X103.264 Y101.182 E1.65538
G1 X102.925 Y101.122 E1.66416
G1 X102.599 Y100.934 E1.67378
G1 X102.390 Y100.685 E1.68206
G1 X102.007 Y100.625 F18000.000
G1 X117.105 Y110.074 F18000.000
G1 X117.201 Y110.072 E1.68590 F810.000
G1 X117.203 Y110.149 E1.68898
G1 X118.527 Y110.142 E1.74195
G1 X118.525 Y116.601 E2.00032
G1 X119.397 Y116.602 E2.03518
G1 X120.458 Y116.742 E2.07799
G1 X120.458 Y117.795 E2.12011
G1 X120.635 Y118.442 E2.14694
G1 X121.090 Y121.128 E2.25592
G1 X121.523 Y124.883 E2.40712
G1 X121.645 Y127.774 E2.52285
G1 X121.566 Y131.231 E2.66118
G1 X121.297 Y134.190 E2.78002
G1 X120.779 Y137.471 E2.91287
G1 X120.286 Y139.548 E2.99828
G1 X119.889 Y140.781 E3.05008
G1 X119.468 Y141.924 E3.09882
G1 X119.158 Y142.604 E3.12871
G1 X118.649 Y143.480 E3.16924
G1 X118.410 Y143.816 E3.18570
G1 X117.972 Y144.348 E3.21330
G1 X117.513 Y144.865 E3.24094
G1 X116.820 Y145.548 E3.27985
G1 X115.206 Y146.747 E3.36026
G1 X113.520 Y147.783 E3.43945
G1 X111.604 Y148.808 E3.52635
G1 X109.628 Y149.636 E3.61207
G1 X107.736 Y150.261 E3.69174
G1 X105.838 Y150.760 E3.77026
G1 X103.751 Y151.115 E3.85494
G1 X101.611 Y151.322 E3.94093
G1 X99.975 Y151.380 E4.00641
G1 X98.339 Y151.321 E4.07189
G1 X96.200 Y151.113 E4.15787
G1 X94.113 Y150.755 E4.24255
G1 X92.215 Y150.255 E4.32105
G1 X90.325 Y149.629 E4.40070
G1 X88.350 Y148.800 E4.48641
G1 X86.436 Y147.773 E4.57328
G1 X84.751 Y146.735 E4.65244
G1 X83.139 Y145.535 E4.73282
G1 X81.955 Y144.364 E4.79944
G1 X81.025 Y143.065 E4.86334
G1 X79.984 Y140.798 E4.96312
G1 X79.199 Y137.453 E5.10057
G1 X78.689 Y134.170 E5.23345
G1 X78.428 Y131.209 E5.35235
G1 X78.357 Y127.750 E5.49075
G1 X78.487 Y124.857 E5.60658
G1 X78.929 Y121.100 E5.75790
G1 X79.323 Y118.842 E5.84958
G1 X79.728 Y117.827 E5.89329
G1 X79.654 Y117.697 E5.89931
G1 X79.573 Y116.553 E5.94519
G1 X79.857 Y116.366 E5.95879
G1 X79.841 Y115.385 E5.99801
G1 X79.996 Y115.069 E6.01212
G1 X79.867 Y114.948 E6.01916
G1 X79.892 Y114.683 E6.02980
G1 X80.212 Y112.118 E6.13321
G1 X80.507 Y110.301 E6.20682
G1 X80.974 Y108.644 E6.27571
G1 X81.451 Y107.454 E6.32696
G1 X81.931 Y106.467 E6.37090
G1 X82.532 Y105.463 E6.41770
G1 X83.179 Y104.524 E6.46330
G1 X83.920 Y103.635 E6.50961
G1 X84.646 Y102.870 E6.55176
G1 X85.450 Y102.143 E6.59512
G1 X86.404 Y101.405 E6.64337
G1 X87.868 Y100.483 E6.71260
G1 X88.586 Y100.109 E6.74497
G1 X88.977 Y99.927 E6.76222
G1 X90.874 Y99.153 E6.84419
G1 X92.290 Y98.796 E6.90258
G1 X94.071 Y98.445 E6.97522
G1 X96.298 Y98.112 E7.06529
G1 X97.167 Y98.018 E7.10024
G1 X98.629 Y97.906 E7.15890
G1 X100.433 Y97.848 E7.23110
G1 X101.576 Y97.850 E7.27680
G1 X102.967 Y97.904 E7.33250
G1 X104.107 Y97.990 E7.37821
G1 X105.380 Y98.125 E7.42943
G1 X106.641 Y98.306 E7.48037
G1 X107.734 Y98.498 E7.52476
G1 X108.679 Y98.693 E7.56338
G1 X110.429 Y99.119 E7.63539
G1 X111.693 Y99.488 E7.68808
G1 X111.797 Y99.413 E7.69321
G1 X112.748 Y99.742 E7.73343
G1 X113.898 Y100.167 E7.78248
G1 X114.371 Y100.363 E7.80295
G1 X114.952 Y100.663 E7.82912
G1 X115.427 Y101.003 E7.85250
G1 X115.825 Y101.366 E7.87403
G1 X116.211 Y101.821 E7.89791
G1 X116.410 Y102.107 E7.91182
G1 X116.556 Y102.368 E7.92381
G1 X116.876 Y103.088 E7.95533
G1 X117.056 Y103.686 E7.98031
G1 X117.126 Y104.194 E8.00079
G1 X117.110 Y104.999 E8.03301
G1 X117.106 Y110.022 E8.23392
G1 X117.500 Y109.670 F18000.000
G1 X117.584 Y109.667 E8.23608 F567.000
G1 X117.587 Y109.753 E8.23826
G1 X118.706 Y109.747 E8.26684
G1 X118.845 Y109.794 E8.27058
G1 X118.900 Y109.870 E8.27297
G1 X118.922 Y109.944 E8.27494
G1 X118.919 Y116.208 E8.43488
G1 X119.423 Y116.208 E8.44773
G1 X120.379 Y116.334 E8.47237
G1 X120.870 Y116.335 E8.48491
G1 X120.852 Y116.473 E8.48847
G1 X120.852 Y117.742 E8.52087
G1 X121.020 Y118.357 E8.53715
G1 X121.481 Y121.073 E8.60748
G1 X121.916 Y124.852 E8.70463
G1 X122.039 Y127.770 E8.77920
G1 X121.959 Y131.254 E8.86817
G1 X121.688 Y134.239 E8.94470
G1 X121.166 Y137.547 E9.03023
G1 X120.665 Y139.654 E9.08553
G1 X120.262 Y140.910 E9.11920
G1 X119.832 Y142.074 E9.15089
G1 X119.509 Y142.785 E9.17084
G1 X118.981 Y143.694 E9.19768
G1 X118.723 Y144.055 E9.20901
G1 X118.271 Y144.604 E9.22716
G1 X117.799 Y145.136 E9.24533
G1 X117.077 Y145.848 E9.27121
G1 X115.428 Y147.073 E9.32368
G1 X113.716 Y148.125 E9.37497
G1 X111.774 Y149.165 E9.43122
G1 X109.766 Y150.006 E9.48681
G1 X107.848 Y150.639 E9.53837
G1 X105.921 Y151.145 E9.58925
G1 X103.803 Y151.506 E9.64411
G1 X101.637 Y151.716 E9.69967
G1 X99.975 Y151.775 E9.74214
G1 X98.313 Y151.715 E9.78461
G1 X96.147 Y151.503 E9.84016
G1 X94.030 Y151.141 E9.89502
G1 X92.103 Y150.633 E9.94589
G1 X90.187 Y149.999 E9.99744
G1 X88.180 Y149.156 E10.05302
G1 X86.239 Y148.115 E10.10925
G1 X84.529 Y147.062 E10.16053
G1 X82.882 Y145.835 E10.21298
G1 X81.654 Y144.621 E10.25707
G1 X80.683 Y143.264 E10.29968
G1 X79.609 Y140.926 E10.36535
G1 X78.812 Y137.528 E10.45448
G1 X78.297 Y134.218 E10.54002
G1 X78.034 Y131.231 E10.61659
G1 X77.963 Y127.745 E10.70561
G1 X78.094 Y124.825 E10.78024
G1 X78.539 Y121.043 E10.87748
G1 X78.942 Y118.734 E10.93733
G1 X79.292 Y117.858 E10.96142
G1 X79.239 Y117.765 E10.96414
G1 X79.261 Y117.727 E10.96527
G1 X79.164 Y116.350 E11.00051
G1 X79.460 Y116.156 E11.00954
G1 X79.445 Y115.297 E11.03146
G1 X79.514 Y115.157 E11.03545
G1 X79.457 Y115.104 E11.03743
G1 X79.822 Y112.062 E11.11566
G1 X80.121 Y110.216 E11.16341
G1 X80.600 Y108.517 E11.20849
G1 X81.090 Y107.295 E11.24211
G1 X81.584 Y106.279 E11.27095
G1 X82.201 Y105.250 E11.30158
G1 X82.865 Y104.286 E11.33147
G1 X83.626 Y103.373 E11.36181
G1 X84.370 Y102.588 E11.38943
G1 X85.197 Y101.841 E11.41788
G1 X86.178 Y101.082 E11.44955
G1 X87.672 Y100.141 E11.49464
G1 X88.412 Y99.756 E11.51594
G1 X88.818 Y99.566 E11.52739
G1 X90.757 Y98.776 E11.58086
G1 X92.203 Y98.412 E11.61894
G1 X94.002 Y98.057 E11.66576
G1 X96.250 Y97.721 E11.72379
G1 X97.131 Y97.625 E11.74641
G1 X98.608 Y97.513 E11.78424
G1 X100.427 Y97.454 E11.83071
G1 X101.584 Y97.456 E11.86025
G1 X102.990 Y97.510 E11.89617
G1 X104.142 Y97.597 E11.92568
G1 X105.429 Y97.734 E11.95872
G1 X106.703 Y97.917 E11.99158
G1 X107.808 Y98.111 E12.02023
G1 X108.763 Y98.308 E12.04514
G1 X109.733 Y98.531 E12.07055
G1 X110.533 Y98.739 E12.09166
G1 X111.620 Y99.056 E12.12056
G1 X111.734 Y98.975 E12.12414
G1 X112.881 Y99.371 E12.15511
G1 X114.042 Y99.800 E12.18672
G1 X114.532 Y100.003 E12.20028
G1 X115.164 Y100.330 E12.21845
G1 X115.676 Y100.696 E12.23451
G1 X116.109 Y101.092 E12.24950
G1 X116.524 Y101.581 E12.26586
G1 X116.745 Y101.897 E12.27572
G1 X116.909 Y102.192 E12.28433
G1 X117.246 Y102.951 E12.30554
G1 X117.442 Y103.602 E12.32290
G1 X117.521 Y104.170 E12.33754
G1 X117.504 Y105.003 E12.35881
G1 X117.500 Y109.617 E12.47663
G1 X117.501 Y109.754 F18000.000
G1 X117.492 Y110.434 F18000.000
G1 X118.240 Y111.182 E12.51905 F900.000
G1 X118.097 Y115.285 F18000.000
G1 X109.472 Y115.382 F18000.000
G1 X118.593 Y118.616 F18000.000
G1 X118.955 Y118.143 F18000.000
G1 X119.322 Y117.738 F18000.000
G1 X119.368 Y117.033 F18000.000
G1 X119.944 Y116.978 F18000.000
G1 X120.171 Y117.205 E12.53192 F900.000
G1 X120.171 Y117.887 E12.55927
G1 X119.173 Y116.889 E12.61588
G1 X118.490 Y116.888 E12.64325
G1 X120.383 Y118.781 E12.75057
G1 X120.522 Y119.602 E12.78398
G1 X102.717 Y101.797 E13.79381
G1 X103.434 Y101.832 E13.82260
G1 X118.238 Y116.636 E14.66225
G1 X118.239 Y115.954 E14.68960
G1 X103.973 Y101.689 E15.49867
G1 X104.405 Y101.438 E15.51868
G1 X118.239 Y115.273 E16.30328
G1 X118.239 Y114.591 E16.33063
G1 X104.716 Y101.068 E17.09760
G1 X104.942 Y100.612 E17.11801
G1 X118.239 Y113.909 E17.87216
G1 X118.240 Y113.227 E17.89950
G1 X105.046 Y100.033 E18.64779
G1 X104.861 Y99.166 E18.68333
G1 X118.240 Y112.545 E19.44211
G1 X118.240 Y111.863 E19.46946
G1 X104.869 Y98.493 E20.22778
G1 X105.507 Y98.448 E20.25342
G1 X116.819 Y109.760 E20.89498
G1 X116.820 Y109.079 E20.92231
G1 X106.304 Y98.563 E21.51872
G1 X107.124 Y98.701 E21.55209
G1 X116.820 Y108.397 E22.10200
G1 X116.821 Y107.716 E22.12933
G1 X107.973 Y98.868 E22.63113
G1 X108.846 Y99.059 E22.66695
G1 X116.821 Y107.034 E23.11929
G1 X116.822 Y106.353 E23.14662
G1 X109.734 Y99.265 E23.54863
G1 X110.675 Y99.523 E23.58776
G1 X116.822 Y105.671 E23.93644
G1 X116.825 Y104.992 E23.96369
G1 X111.638 Y99.804 E24.25790
G1 X112.544 Y100.029 E24.29535
G1 X116.839 Y104.323 E24.53891
G1 X116.651 Y103.454 E24.57458
G1 X113.608 Y100.411 E24.74718
G1 X115.116 Y101.237 F18000.000
G1 X115.806 Y101.926 E24.78630 F900.000
G1 E24.18630 F1440.00000
G92 E0
G1 Z0.400 F18000.000
G1 X115.331 Y101.491 F18000.000
G1 X109.154 Y105.514 F18000.000
G1 X108.507 Y103.524 F18000.000
G1 X107.408 Y101.300 F18000.000
G1 X107.368 Y101.229 F18000.000
G1 X105.190 Y100.437 F18000.000
G1 X101.980 Y99.014 F18000.000
G1 Z0.200 F18000.000
G1 E0.60000 F1440.00000
G1 X101.102 Y98.136 E0.64979 F900.000
G1 X100.419 Y98.135 E0.67719
G1 X101.711 Y99.427 E0.75045
G1 X101.546 Y99.944 E0.77223
G1 X99.756 Y98.154 E0.87380
G1 X99.095 Y98.175 E0.90031
G1 X101.601 Y100.681 E1.04244
G1 X85.627 Y106.533 F18000.000
G1 X119.679 Y140.585 E2.97370 F900.000
G1 X119.501 Y141.089 E2.99514
G1 X85.653 Y107.242 E4.91481
G1 X85.477 Y107.748 E4.93629
G1 X119.317 Y141.588 E6.85552
G1 X119.121 Y142.074 E6.87654
G1 X85.196 Y108.149 E8.80058
G1 X84.838 Y108.473 E8.81994
G1 X118.906 Y142.541 E10.75215
G1 X118.656 Y142.973 E10.77216
G1 X84.392 Y108.709 E12.71543
