; generated by Slic3r 1.2.9 on 2016-11-10 at 19:25:13

; external perimeters extrusion width = 0.40mm
; perimeters extrusion width = 0.40mm
; infill extrusion width = 0.40mm
; solid infill extrusion width = 0.40mm
; top infill extrusion width = 0.40mm

M190 S70 ; set bed temperature
M104 S220 ; set temperature
G28 ; home all axes
G1 Z5 F5000 ; lift nozzle
M109 S220 ; wait for temperature to be reached
G21 ; set units to millimeters
G90 ; use absolute coordinates
M82 ; use absolute distances for extrusion
G92 E0
G1 Z0.100 F18000.000
G1 E-0.60000 F1440.00000
G92 E0
G1 Z0.300 F18000.000
G1 X84.296 Y99.105 F18000.000
G1 Z0.100 F18000.000
G1 E0.60000 F1440.00000
G1 X84.749 Y98.740 E0.61387 F1080.000
G1 X85.346 Y98.302 E0.63151
G1 X86.087 Y97.831 E0.65246
G1 X86.495 Y97.608 E0.66355
G1 X87.327 Y97.227 E0.68536
G1 X87.945 Y96.999 E0.70106
G1 X88.646 Y96.785 E0.71855
G1 X89.141 Y96.665 E0.73070
G1 X110.345 Y92.424 E1.24630
G1 X111.652 Y92.297 E1.27762
G1 X113.817 Y92.658 E1.32997
G1 X115.162 Y93.123 E1.36390 F1080.000
G1 X116.372 Y93.571 E1.39468
G1 X117.077 Y93.858 E1.41282
G1 X117.811 Y94.202 E1.43215
G1 X118.429 Y94.536 E1.44890
G1 X118.889 Y94.820 E1.46180
G1 X119.453 Y95.214 E1.47819
G1 X120.063 Y95.698 E1.49675
G1 X120.683 Y96.264 E1.51677
G1 X121.274 Y96.889 E1.53728
G1 X121.718 Y97.427 E1.55394
G1 X122.204 Y98.099 E1.57371
G1 X122.549 Y98.651 E1.58923
G1 X122.985 Y99.488 E1.61174
G1 X123.326 Y100.255 E1.63175
G1 X123.615 Y101.035 E1.65158
G1 X123.881 Y101.940 E1.67407
G1 X127.157 Y114.610 E1.98613
G1 X127.317 Y115.446 E2.00642
G1 X127.923 Y120.333 E2.12385
G1 X128.357 Y124.107 E2.21443
G1 X128.394 Y124.582 E2.22578
G1 X128.522 Y127.922 E2.30549
G1 X128.442 Y131.399 E2.38843
G1 X128.417 Y131.842 E2.39901
G1 X128.146 Y134.822 E2.47034
G1 X128.093 Y135.253 E2.48071
G1 X127.571 Y138.555 E2.56043
G1 X127.474 Y139.048 E2.57241
G1 X126.979 Y141.133 E2.62349
G1 X126.821 Y141.686 E2.63721
G1 X126.197 Y143.543 E2.68392
G1 X125.882 Y144.402 E2.70575
G1 X125.403 Y145.487 E2.73402
G1 X125.153 Y145.975 E2.74711
G1 X124.494 Y147.103 E2.77825
G1 X124.221 Y147.516 E2.79006
G1 X123.700 Y148.210 E2.81075
G1 X122.643 Y149.445 E2.84950
G1 X121.633 Y150.461 E2.88366
G1 X120.940 Y151.055 E2.90544
G1 X119.299 Y152.275 E2.95420
G1 X118.819 Y152.600 E2.96802
G1 X117.112 Y153.648 E3.01576
G1 X114.838 Y154.879 E3.07743
G1 X114.275 Y155.146 E3.09228
G1 X112.274 Y155.984 E3.14401
G1 X111.796 Y156.163 E3.15618
G1 X109.885 Y156.795 E3.20418
G1 X107.572 Y157.415 E3.26129
G1 X107.007 Y157.537 E3.27507
G1 X104.896 Y157.897 E3.32613
G1 X104.425 Y157.960 E3.33747
G1 X102.265 Y158.169 E3.38922
G1 X100.208 Y158.254 E3.43830
G1 X99.738 Y158.254 E3.44951
G1 X97.681 Y158.167 E3.49860
G1 X95.521 Y157.957 E3.55034
G1 X95.050 Y157.893 E3.56168
G1 X92.939 Y157.532 E3.61274
G1 X92.374 Y157.409 E3.62653
G1 X90.062 Y156.787 E3.68363
G1 X88.151 Y156.154 E3.73162
G1 X87.673 Y155.975 E3.74380
G1 X85.673 Y155.135 E3.79552
G1 X85.111 Y154.867 E3.81038
G1 X82.838 Y153.634 E3.87204
G1 X81.133 Y152.585 E3.91977
G1 X80.653 Y152.259 E3.93361
G1 X79.014 Y151.038 E3.98235
G1 X78.320 Y150.441 E4.00417
G1 X77.102 Y149.237 E4.04501
G1 X76.376 Y148.387 E4.07166
G1 X75.415 Y147.043 E4.11107
G1 X74.787 Y145.961 E4.14090
G1 X73.721 Y143.640 E4.20180
G1 X73.295 Y142.399 E4.23307
G1 X72.500 Y139.013 E4.31601
G1 X72.404 Y138.519 E4.32800
G1 X71.891 Y135.215 E4.40774
G1 X71.838 Y134.783 E4.41811
G1 X71.576 Y131.802 E4.48947
G1 X71.552 Y131.359 E4.50005
G1 X71.486 Y127.451 E4.59326
G1 X71.617 Y124.537 E4.66281
G1 X71.655 Y124.063 E4.67414
G1 X72.134 Y120.036 E4.77084
G1 X72.890 Y115.216 E4.88718
G1 X72.974 Y114.778 E4.89782
G1 X74.055 Y112.368 E4.96080
G1 X81.434 Y102.111 E5.26209
G1 X82.269 Y101.079 E5.29374
G1 X82.663 Y100.645 E5.30773
G1 X83.293 Y100.008 E5.32910
G1 X84.257 Y99.139 E5.36003
G1 E4.76003 F1440.00000
G92 E0
G1 Z0.300 F18000.000
G1 X86.586 Y117.591 F18000.000
G1 Z0.100 F18000.000
G1 E0.60000 F1440.00000
G1 X85.916 Y117.914 E0.61171 F630.000
G1 X85.246 Y117.591 E0.62341
G1 X85.080 Y116.866 E0.63512
G1 X85.544 Y116.284 E0.64683
G1 X86.288 Y116.284 E0.65853 F630.000
G1 X86.751 Y116.866 E0.67024
G1 X86.598 Y117.540 E0.68112
G1 X86.257 Y117.329 F18000.000
G1 X85.916 Y117.494 E0.68709 F630.000
G1 X85.574 Y117.329 E0.69306
G1 X85.490 Y116.959 E0.69903
G1 X85.726 Y116.663 E0.70500
G1 X86.105 Y116.663 E0.71097
G1 X86.342 Y116.959 E0.71693
G1 X86.269 Y117.278 E0.72208
G1 X86.335 Y117.670 F18000.000
G1 X116.435 Y116.866 F18000.000
G1 X116.899 Y116.284 E0.73378 F630.000
G1 X117.643 Y116.284 E0.74549 F630.000
G1 X118.106 Y116.866 E0.75720
G1 X117.941 Y117.591 E0.76890
G1 X117.271 Y117.914 E0.78061
G1 X116.601 Y117.591 E0.79232
G1 X116.447 Y116.917 E0.80320
G1 X117.081 Y116.663 F18000.000
G1 X117.460 Y116.663 E0.80917 F630.000
G1 X117.697 Y116.959 E0.81514
G1 X117.612 Y117.329 E0.82111
G1 X117.271 Y117.494 E0.82707
G1 X116.929 Y117.329 E0.83304
G1 X116.845 Y116.959 E0.83901
G1 X117.048 Y116.704 E0.84416
G1 X117.159 Y116.322 F18000.000
G1 X118.444 Y116.722 F18000.000
G1 X119.909 Y116.723 E0.86722 F810.000
G1 X120.115 Y116.750 E0.87049
G1 X120.115 Y117.890 E0.88843
G1 X120.281 Y118.146 E0.89323
G1 X120.345 Y118.369 E0.89688
G1 X120.819 Y121.167 E0.94154
G1 X121.250 Y124.905 E1.00075
G1 X121.371 Y127.777 E1.04599
G1 X121.292 Y131.216 E1.10013
G1 X121.025 Y134.156 E1.14660
G1 X120.510 Y137.418 E1.19856
G1 X120.026 Y139.455 E1.23152
G1 X119.439 Y141.203 E1.26054
G1 X119.180 Y141.905 E1.27231
G1 X118.921 Y142.464 E1.28201
G1 X118.395 Y143.367 E1.29846
G1 X118.205 Y143.632 E1.30358
G1 X117.301 Y144.689 E1.32548
G1 X116.641 Y145.339 E1.34005
G1 X115.053 Y146.519 E1.37119
G1 X113.383 Y147.545 E1.40203
G1 X111.487 Y148.560 E1.43589
G1 X109.532 Y149.379 E1.46925
G1 X107.659 Y149.998 E1.50029
G1 X105.780 Y150.491 E1.53086
G1 X103.715 Y150.843 E1.56383
G1 X101.593 Y151.048 E1.59737
G1 X99.975 Y151.106 E1.62285
G1 X98.358 Y151.047 E1.64833
G1 X96.236 Y150.840 E1.68187
G1 X94.172 Y150.487 E1.71484
G1 X92.294 Y149.992 E1.74540
G1 X90.422 Y149.372 E1.77644
G1 X88.468 Y148.552 E1.80979
G1 X86.573 Y147.535 E1.84363
G1 X84.905 Y146.508 E1.87446
G1 X83.318 Y145.326 E1.90559
G1 X82.164 Y144.185 E1.93114
G1 X81.263 Y142.926 E1.95550
G1 X80.245 Y140.708 E1.99391
G1 X79.468 Y137.400 E2.04739
G1 X78.961 Y134.136 E2.09937
G1 X78.702 Y131.194 E2.14586
G1 X78.632 Y127.752 E2.20003
G1 X78.761 Y124.879 E2.24530
G1 X79.201 Y121.138 E2.30457
G1 X79.561 Y119.065 E2.33768
G1 X79.669 Y118.657 E2.34433
G1 X80.029 Y117.778 E2.35928
G1 X82.865 Y117.768 E2.40392
G1 X83.125 Y117.717 E2.40809
G1 X83.395 Y117.536 E2.41320
G1 X83.575 Y117.266 E2.41831
G1 X83.627 Y117.005 E2.42250
G1 X83.627 Y116.583 E2.42915
G1 X83.575 Y116.322 E2.43334
G1 X83.395 Y116.052 E2.43844
G1 X83.229 Y115.941 E2.44159
G1 X83.277 Y115.780 E2.44422
G1 X84.386 Y115.768 E2.46167
G1 X84.508 Y114.891 E2.47561
G1 X85.210 Y110.909 E2.53925
G1 X85.348 Y110.251 E2.54982
G1 X85.495 Y109.720 E2.55849
G1 X85.694 Y109.110 E2.56859
G1 X86.021 Y108.334 E2.58185
G1 X86.402 Y107.595 E2.59493
G1 X86.802 Y106.923 E2.60724
G1 X87.232 Y106.300 E2.61915
G1 X87.761 Y105.660 E2.63222
G1 X88.360 Y105.056 E2.64561
G1 X89.003 Y104.490 E2.65909
G1 X89.547 Y104.090 E2.66971
G1 X89.884 Y103.907 E2.67575
G1 X90.552 Y103.678 E2.68686
G1 X91.123 Y103.615 E2.69591
G1 X106.754 Y103.602 E2.94191
G1 X107.180 Y103.571 E2.94863
G1 X107.645 Y103.426 E2.95628
G1 X108.025 Y103.212 E2.96315
G1 X108.246 Y103.018 E2.96778
G1 X111.771 Y99.521 E3.04593
G1 X112.712 Y99.843 E3.06159
G1 X113.857 Y100.266 E3.08080
G1 X114.320 Y100.458 E3.08868
G1 X114.904 Y100.760 E3.09903
G1 X115.359 Y101.086 E3.10785
G1 X115.748 Y101.441 E3.11613
G1 X116.125 Y101.886 E3.12531
G1 X116.319 Y102.164 E3.13064
G1 X116.460 Y102.416 E3.13519
G1 X116.775 Y103.126 E3.14741
G1 X116.950 Y103.709 E3.15700
G1 X117.019 Y104.200 E3.16479
G1 X117.002 Y104.999 E3.17736
G1 X116.997 Y110.070 E3.25718
G1 X116.976 Y110.259 E3.26016
G1 X118.444 Y110.250 E3.28328
G1 X118.444 Y116.669 E3.38429
G1 X118.822 Y116.343 F18000.000
G1 X119.934 Y116.344 E3.40180 F567.000
G1 X120.493 Y116.418 E3.41067
G1 X120.493 Y117.778 E3.43208
G1 X120.629 Y117.988 E3.43601
G1 X120.714 Y118.285 E3.44087
G1 X121.194 Y121.113 E3.48602
G1 X121.627 Y124.875 E3.54561
G1 X121.750 Y127.773 E3.59126
G1 X121.670 Y131.237 E3.64579
G1 X121.401 Y134.203 E3.69266
G1 X120.882 Y137.491 E3.74505
G1 X120.390 Y139.559 E3.77850
G1 X119.796 Y141.329 E3.80788
G1 X119.530 Y142.050 E3.81998
G1 X119.257 Y142.639 E3.83020
G1 X118.713 Y143.573 E3.84721
G1 X118.503 Y143.865 E3.85287
G1 X117.578 Y144.947 E3.87528
G1 X116.888 Y145.627 E3.89052
G1 X115.265 Y146.833 E3.92234
G1 X113.572 Y147.873 E3.95362
G1 X111.650 Y148.902 E3.98793
G1 X109.664 Y149.734 E4.02180
G1 X107.766 Y150.361 E4.05326
G1 X105.860 Y150.861 E4.08428
G1 X103.765 Y151.219 E4.11773
G1 X101.618 Y151.426 E4.15167
G1 X99.975 Y151.485 E4.17754
G1 X98.332 Y151.425 E4.20342
G1 X96.186 Y151.216 E4.23736
G1 X94.091 Y150.857 E4.27080
G1 X92.186 Y150.355 E4.30181
G1 X90.289 Y149.727 E4.33327
G1 X88.305 Y148.894 E4.36713
G1 X86.384 Y147.863 E4.40144
G1 X84.692 Y146.821 E4.43270
G1 X83.071 Y145.614 E4.46452
G1 X81.875 Y144.432 E4.49098
G1 X80.934 Y143.117 E4.51642
G1 X79.885 Y140.831 E4.55600
G1 X79.096 Y137.472 E4.61031
G1 X78.585 Y134.182 E4.66271
G1 X78.324 Y131.214 E4.70960
G1 X78.253 Y127.748 E4.76416
G1 X78.383 Y124.848 E4.80985
G1 X78.826 Y121.084 E4.86949
G1 X79.191 Y118.984 E4.90303
G1 X79.309 Y118.536 E4.91032
G1 X79.634 Y117.742 E4.92382
G1 X79.694 Y117.406 E4.92920
G1 X82.827 Y117.390 E4.97852
G1 X82.978 Y117.360 E4.98093
G1 X83.122 Y117.263 E4.98367
G1 X83.219 Y117.119 E4.98640
G1 X83.249 Y116.968 E4.98882
G1 X83.249 Y116.620 E4.99430
G1 X83.219 Y116.469 E4.99671
G1 X83.122 Y116.325 E4.99945
G1 X82.645 Y116.006 E5.00848
G1 X82.645 Y116.203 E5.01158
G1 X82.263 Y116.198 E5.01760
G1 X82.298 Y115.429 E5.02971
G1 X82.488 Y115.411 E5.03272
G1 X84.056 Y115.393 E5.05739
G1 X84.134 Y114.832 E5.06631
G1 X84.839 Y110.837 E5.13015
G1 X84.980 Y110.162 E5.14100
G1 X85.133 Y109.611 E5.15000
G1 X85.339 Y108.978 E5.16048
G1 X85.678 Y108.173 E5.17422
G1 X86.071 Y107.412 E5.18771
G1 X86.483 Y106.718 E5.20040
G1 X86.930 Y106.071 E5.21277
G1 X87.481 Y105.406 E5.22637
G1 X88.100 Y104.780 E5.24023
G1 X88.766 Y104.195 E5.25418
G1 X89.344 Y103.770 E5.26546
G1 X89.727 Y103.561 E5.27233
G1 X90.226 Y103.377 E5.28071
G1 X90.473 Y103.307 E5.28474
G1 X90.826 Y103.255 E5.29036
G1 X91.111 Y103.237 E5.29486
G1 X106.741 Y103.223 E5.54083
G1 X107.109 Y103.197 E5.54665
G1 X107.494 Y103.077 E5.55299
G1 X107.805 Y102.902 E5.55860
G1 X107.987 Y102.741 E5.56243
G1 X111.674 Y99.084 E5.64415
G1 X112.839 Y99.486 E5.66356
G1 X113.995 Y99.914 E5.68296
G1 X114.480 Y100.114 E5.69121
G1 X115.102 Y100.437 E5.70224
G1 X115.598 Y100.792 E5.71184
G1 X116.021 Y101.178 E5.72085
G1 X116.426 Y101.655 E5.73069
G1 X116.640 Y101.963 E5.73660
G1 X116.799 Y102.247 E5.74172
G1 X117.131 Y102.994 E5.75459
G1 X117.321 Y103.628 E5.76501
G1 X117.398 Y104.177 E5.77374
G1 X117.381 Y105.003 E5.78673
G1 X117.375 Y109.834 E5.86276
G1 X117.404 Y109.833 E5.86320
G1 X117.399 Y109.878 E5.86391
G1 X118.710 Y109.870 E5.88455
G1 X118.823 Y110.003 E5.88728
G1 X118.822 Y116.291 E5.98625
G1 X118.822 Y116.693 F18000.000
G1 X119.893 Y117.355 F18000.000
G1 X119.482 Y116.944 E5.99546 F900.000
G1 X118.943 Y116.944 E6.00399
G1 X119.893 Y117.894 E6.02527
G1 X120.162 Y118.701 F18000.000
G1 X118.404 Y116.943 E6.06464 F900.000
G1 X118.219 Y117.297 E6.07096
G1 X120.272 Y119.349 E6.11693
G1 X120.382 Y119.998 E6.12735
G1 X118.109 Y117.726 E6.17824
G1 X117.746 Y117.901 E6.18463
G1 X120.492 Y120.647 E6.24613
G1 X120.601 Y121.295 E6.25654
G1 X117.382 Y118.076 E6.32864
G1 X116.699 Y117.932 F18000.000
G1 X120.671 Y121.904 E6.41759 F900.000
G1 X120.742 Y122.513 E6.42730
G1 X102.056 Y103.827 E6.84578
G1 X102.594 Y103.827 E6.85431
G1 X116.351 Y117.584 E7.16241
G1 X116.192 Y116.886 E7.17375
G1 X103.133 Y103.826 E7.46623
G1 X103.671 Y103.826 E7.47476
G1 X116.423 Y116.578 E7.76036
G1 X116.662 Y116.278 E7.76643
G1 X104.209 Y103.825 E8.04532
G1 X104.747 Y103.825 E8.05385
G1 X116.985 Y116.063 E8.32793
G1 X117.524 Y116.063 E8.33646
G1 X105.285 Y103.825 E8.61055
G1 X105.824 Y103.824 E8.61908
G1 X118.222 Y116.223 E8.89676
G1 X118.222 Y115.684 E8.90529
G1 X106.362 Y103.824 E9.17091
G1 X106.886 Y103.809 E9.17921
G1 X118.222 Y115.145 E9.43311
G1 X118.222 Y114.607 E9.44164
G1 X107.346 Y103.730 E9.68523
G1 X107.745 Y103.591 E9.69192
G1 X118.222 Y114.068 E9.92658
G1 X118.223 Y113.529 E9.93511
G1 X108.090 Y103.397 E10.16205
G1 X108.381 Y103.149 E10.16810
G1 X118.223 Y112.991 E10.38852
G1 X117.861 Y110.475 F18000.000
G1 X118.223 Y110.836 E10.39662 F900.000
G1 X118.223 Y111.375 E10.40515
G1 X117.325 Y110.478 E10.42525
G1 X116.790 Y110.481 E10.43373
G1 X118.223 Y111.914 E10.46583
G1 X118.223 Y112.452 E10.47436
G1 X108.651 Y102.881 E10.68872
G1 X108.922 Y102.613 E10.69475
G1 X116.742 Y110.433 E10.86990
G1 X116.775 Y109.928 E10.87792
G1 X109.192 Y102.344 E11.04775
G1 X109.463 Y102.076 E11.05379
G1 X116.776 Y109.390 E11.21758
G1 X116.777 Y108.851 E11.22610
G1 X109.733 Y101.808 E11.38386
G1 X110.003 Y101.539 E11.38989
G1 X116.777 Y108.313 E11.54160
G1 X116.778 Y107.775 E11.55012
G1 X110.274 Y101.271 E11.69579
G1 X110.544 Y101.003 E11.70182
G1 X116.779 Y107.237 E11.84144
G1 X116.779 Y106.699 E11.84996
G1 X110.815 Y100.735 E11.98355
G1 X111.085 Y100.466 E11.98958
G1 X116.780 Y106.161 E12.11712
G1 X116.780 Y105.623 E12.12564
G1 X111.355 Y100.198 E12.24713
G1 X111.626 Y99.930 E12.25317
G1 X116.781 Y105.085 E12.36862
G1 X116.791 Y104.557 E12.37699
G1 X112.153 Y99.918 E12.48087
G1 X112.991 Y100.217 F18000.000
G1 X116.752 Y103.979 E12.56511 F900.000
G1 X116.531 Y103.219 E12.57765
G1 X113.859 Y100.546 E12.63750
G1 X115.124 Y101.273 F18000.000
G1 X115.770 Y101.919 E12.65198 F900.000
G1 X116.083 Y102.605 F18000.000
G1 X107.787 Y112.991 F18000.000
G1 X112.044 Y125.628 F18000.000
G1 X118.910 Y118.750 F18000.000
G1 X118.994 Y118.017 F18000.000
G1 X119.016 Y117.821 F18000.000
G1 X119.693 Y117.144 F18000.000
G1 X120.812 Y123.122 F18000.000
G1 X101.518 Y103.828 E13.08408 F900.000
G1 X100.980 Y103.828 E13.09261
G1 X120.882 Y123.730 E13.53834
G1 X120.952 Y124.339 E13.54804
G1 X100.441 Y103.829 E14.00740
G1 X99.903 Y103.829 E14.01592
G1 X121.022 Y124.948 E14.48890
G1 X121.050 Y125.515 E14.49790
G1 X99.365 Y103.830 E14.98357
G1 X98.827 Y103.830 E14.99209
G1 X121.074 Y126.077 E15.49035
G1 X121.098 Y126.640 E15.49926
G1 X98.288 Y103.831 E16.01011
G1 X97.750 Y103.831 E16.01863
G1 X121.122 Y127.202 E16.54206
G1 X121.145 Y127.765 E16.55098
G1 X97.212 Y103.831 E17.08700
G1 X96.674 Y103.832 E17.09552
G1 X121.139 Y128.298 E17.64346
G1 X121.127 Y128.824 E17.65180
G1 X96.136 Y103.832 E18.21152
G1 X95.597 Y103.833 E18.22004
G1 X121.115 Y129.351 E18.79154
G1 X121.103 Y129.877 E18.79988
G1 X95.059 Y103.833 E19.38317
G1 X94.521 Y103.834 E19.39169
G1 X121.091 Y130.404 E19.98676
G1 X121.079 Y130.930 E19.99510
G1 X93.983 Y103.834 E20.60196
G1 X93.444 Y103.835 E20.61048
G1 X121.056 Y131.446 E21.22887
G1 X121.011 Y131.940 E21.23672
G1 X92.906 Y103.835 E21.86616
G1 X92.368 Y103.836 E21.87468
G1 X120.966 Y132.434 E22.51517
G1 X120.921 Y132.928 E22.52303
G1 X91.830 Y103.836 E23.17456
G1 X91.291 Y103.837 E23.18309
G1 X120.876 Y133.421 E23.84568
G1 X120.832 Y133.915 E23.85353
G1 X90.783 Y103.867 E24.52650
G1 X90.331 Y103.953 E24.53379
G1 X120.775 Y134.397 E25.21561
G1 X120.701 Y134.862 E25.22307
G1 X89.937 Y104.099 E25.91206
G1 X89.592 Y104.292 E25.91832
G1 X120.628 Y135.327 E26.61340
G1 X120.554 Y135.793 E26.62085
G1 X89.282 Y104.520 E27.32124
G1 X88.982 Y104.759 E27.32731
G1 X120.481 Y136.258 E28.03275
G1 X120.407 Y136.723 E28.04021
G1 X88.697 Y105.013 E28.75039
G1 X88.428 Y105.283 E28.75642
G1 X120.334 Y137.188 E29.47099
G1 X120.246 Y137.640 E29.47827
G1 X88.159 Y105.552 E30.19692
G1 X87.889 Y105.821 E30.20295
G1 X120.143 Y138.075 E30.92531
G1 X120.040 Y138.510 E30.93240
G1 X87.636 Y106.107 E31.65811
G1 X87.392 Y106.402 E31.66417
G1 X119.936 Y138.946 E32.39303
G1 X119.833 Y139.381 E32.40011
G1 X87.172 Y106.720 E33.13158
G1 X86.954 Y107.041 E33.13773
