; generated by Slic3r 1.2.9 on 2016-11-10 at 17:46:16

; external perimeters extrusion width = 0.35mm
; perimeters extrusion width = 0.52mm
; infill extrusion width = 0.52mm
; solid infill extrusion width = 0.52mm
; top infill extrusion width = 0.52mm
; support material extrusion width = 0.35mm

G28 ; home all axes
G1 Z5 F5000 ; lift nozzle
G21 ; set units to millimeters
G90 ; use absolute coordinates
M82 ; use absolute distances for extrusion
G92 E0
G1 Z0.300 F18000.000
G1 E-0.60000 F1440.00000
G92 E0
G1 X92.159 Y102.114 F18000.000
G1 E0.60000 F1440.00000
G1 X94.242 Y101.192 E0.75065 F1080.000
G1 X95.495 Y101.010 E0.83442
G1 X99.177 Y100.837 E1.07819
G1 X100.693 Y100.832 E1.17843
G1 X104.440 Y100.957 E1.42642 F1080.000
G1 X107.202 Y101.675 E1.61516
G1 X108.155 Y102.164 E1.68601
G1 X109.534 Y103.114 E1.79675
G1 X110.361 Y103.855 E1.87020
G1 X111.295 Y104.894 E1.96262
G1 X125.439 Y124.490 E3.56094
G1 X125.955 Y125.332 E3.62628
G1 X127.167 Y127.696 E3.80194
G1 X127.879 Y129.256 E3.91533
G1 X128.437 Y131.464 E4.06598
G1 X128.204 Y133.730 E4.21663
G1 X127.761 Y134.866 E4.29729
G1 X126.714 Y136.957 E4.45195
G1 X125.354 Y138.784 E4.60260
G1 X123.449 Y140.034 E4.75325
G1 X122.193 Y140.429 E4.84036
G1 X120.856 Y140.705 E4.93063
G1 X119.536 Y140.840 E5.01840
G1 X79.988 Y140.850 E7.63399
G1 X78.172 Y140.594 E7.75530
G1 X77.125 Y140.291 E7.82735
G1 X75.081 Y139.287 E7.97800
G1 X73.781 Y138.025 E8.09778
G1 X73.053 Y137.089 E8.17628
G1 X71.989 Y135.075 E8.32693
G1 X71.681 Y132.818 E8.47758
G1 X72.368 Y130.147 E8.65996
G1 X74.552 Y125.789 E8.98234
G1 X75.110 Y124.873 E9.05330
G1 X90.518 Y103.694 E10.78550
G1 X92.121 Y102.150 E10.93267
G1 E10.33267 F1440.00000
G92 E0
G1 X100.000 Y132.174 F18000.000
G1 E0.60000 F1440.00000
G1 X99.793 Y131.990 E0.61831 F900.000
G1 X99.796 Y131.792 E0.63142
G1 X99.822 Y131.715 E0.63675
G1 X100.000 Y131.546 E0.65302
G1 X100.178 Y131.715 E0.66929
G1 X100.205 Y131.792 E0.67462
G1 X100.207 Y131.990 E0.68773
G1 X100.039 Y132.139 E0.70257
G1 X100.000 Y132.722 F18000.000
G1 X99.703 Y132.626 E0.72323 F900.000
G1 X99.344 Y132.307 E0.75495
G1 X99.257 Y132.056 E0.77256
G1 X99.261 Y131.698 E0.79622
G1 X99.358 Y131.417 E0.81589
G1 X99.738 Y131.056 E0.85054
G1 X99.999 Y130.996 E0.86829
G1 X100.262 Y131.056 E0.88614
G1 X100.642 Y131.417 E0.92077
G1 X100.739 Y131.698 E0.94045
G1 X100.743 Y132.056 E0.96411
G1 X100.656 Y132.307 E0.98172
G1 X100.297 Y132.626 E1.01344
G1 X100.050 Y132.706 E1.03062
G1 X99.836 Y133.232 F18000.000
G1 X99.431 Y133.101 E1.05874 F900.000
G1 X98.929 Y132.655 E1.10318
G1 X98.846 Y132.506 E1.11443
G1 X98.720 Y132.144 E1.13982
G1 X98.726 Y131.605 E1.17544
G1 X98.869 Y131.193 E1.20428
G1 X98.921 Y131.094 E1.21169
G1 X99.462 Y130.579 E1.26108
G1 X100.000 Y130.447 E1.29769
G1 X100.039 Y130.456 E1.30037
G1 X100.538 Y130.579 E1.33436 F900.000
G1 X101.079 Y131.094 E1.38375
G1 X101.131 Y131.193 E1.39115
G1 X101.274 Y131.605 E1.42000
G1 X101.280 Y132.144 E1.45562
G1 X101.154 Y132.506 E1.48101
G1 X101.071 Y132.655 E1.49226
G1 X100.569 Y133.101 E1.53669
G1 X100.000 Y133.271 E1.57596
G1 X99.886 Y133.246 E1.58366
G1 X99.753 Y132.892 F18000.000
G1 Z0.300 F18000.000
G1 E0.98366 F1440.00000
G92 E0
G1 X109.998 Y129.424 F18000.000
G1 E0.60000 F1440.00000
G1 X111.195 Y127.035 E0.77673 F1080.000
G1 X112.652 Y126.518 E0.87898
G1 X110.828 Y130.159 E1.14828
G1 E0.54828 F1440.00000
G92 E0
G1 X110.910 Y132.386 F18000.000
G1 E0.60000 F1440.00000
G1 X114.137 Y125.947 E1.07637 F1080.000
G1 X115.869 Y124.881 E1.21086
G1 X111.965 Y132.672 E1.78721
G1 X113.434 Y132.130 E1.89079
G1 X115.725 Y127.559 E2.22898
G1 X116.768 Y127.869 F18000.000
G1 X114.637 Y132.121 E2.54351 F1080.000
G1 X115.642 Y132.508 E2.61470
G1 X117.834 Y128.133 E2.93832
G1 X118.635 Y128.925 F18000.000
G1 X116.755 Y132.677 E3.21587 F1080.000
G1 X117.668 Y133.246 E3.28703
G1 X120.140 Y128.315 E3.65181
G1 X120.746 Y129.497 E3.73964
G1 X118.354 Y134.268 E4.09261
G1 X119.534 Y134.304 E4.17067
G1 X121.352 Y130.678 E4.43894
G1 X121.919 Y131.938 E4.53030
G1 X120.871 Y134.028 E4.68496
G1 E4.08496 F1440.00000
G92 E0
G1 X102.240 Y118.604 F18000.000
G1 E0.60000 F1440.00000
G1 X103.226 Y116.636 E0.74560 F1080.000
G1 X102.458 Y115.779 E0.82174
G1 X101.367 Y117.955 E0.98272
G1 E0.38272 F1440.00000
G92 E0
G1 X99.169 Y117.559 F18000.000
G1 E0.60000 F1440.00000
G1 X99.430 Y117.037 E0.63863 F1080.000
G1 X98.524 Y116.455 E0.70988
G1 X97.320 Y118.858 E0.88761
G1 X96.884 Y117.337 E0.99228
G1 X97.671 Y115.767 E1.10842
G1 X96.758 Y115.197 E1.17958
G1 X96.468 Y115.777 E1.22249
G1 E0.62249 F1440.00000
G92 E0
G1 X95.803 Y107.539 F18000.000
G1 E0.60000 F1440.00000
G1 X93.879 Y111.379 E0.88406 F1080.000
G1 X94.663 Y112.204 E0.95938
G1 X96.800 Y107.940 E1.27481
G1 X98.186 Y107.567 E1.36972
G1 X95.665 Y112.595 E1.74175
G1 X96.750 Y112.823 E1.81503
G1 X99.485 Y107.365 E2.21876
G1 X100.682 Y107.367 E2.29795
G1 X98.212 Y112.295 E2.66252
G1 X99.291 Y112.535 E2.73557
G1 X101.799 Y107.531 E3.10577
G1 X102.866 Y107.792 E3.17844
G1 X100.481 Y112.551 E3.53052
G1 X101.830 Y112.249 E3.62200
G1 X104.216 Y107.488 E3.97418
G1 X105.169 Y107.978 E4.04503
G1 X102.877 Y112.550 E4.38332
G1 X104.040 Y112.622 E4.46034
G1 X105.996 Y108.719 E4.74905
G1 X106.378 Y110.348 E4.85966
G1 X105.638 Y111.825 E4.96893
G1 E4.36893 F1440.00000
G92 E0
G1 X89.492 Y129.693 F18000.000
G1 E0.60000 F1440.00000
G1 X90.324 Y128.034 E0.72278 F1080.000
G1 X89.556 Y127.175 E0.79896
G1 X86.972 Y132.330 E1.18035
G1 X85.918 Y132.043 E1.25261
G1 X88.498 Y126.895 E1.63341
G1 X87.489 Y126.518 E1.70466
G1 X84.567 Y132.347 E2.13595
G1 X83.220 Y132.645 E2.22719
G1 X86.480 Y126.140 E2.70842
G1 X85.546 Y125.614 E2.77935
G1 X81.204 Y134.277 E3.42023
G1 X79.987 Y134.315 E3.50077
G1 X83.216 Y127.872 E3.97741
G1 X83.043 Y128.216 E4.00288
G1 X81.483 Y128.938 E4.11654
G1 X78.940 Y134.012 E4.49197
G1 X78.211 Y133.076 E4.57046
G1 X80.395 Y128.718 E4.89284
G1 E4.29284 F1440.00000
G92 E0
G1 X84.284 Y125.740 F18000.000
G1 E0.60000 F1440.00000
G1 X84.665 Y124.979 E0.65626 F1080.000
G1 E0.05626 F1440.00000
G92 E0
G1 X88.932 Y130.811 F18000.000
G1 E0.60000 F1440.00000
G1 X88.044 Y132.584 E0.73111 F1080.000
G1 Z0.450 F18000.000
G1 X88.487 Y130.701 F18000.000
G1 X88.554 Y130.504 E0.73520 F3600.000
G1 X88.222 Y130.504 E0.74173
G1 X87.374 Y131.972 E0.77498
G1 X87.557 Y132.061 E0.77898
G1 X87.603 Y132.207 E0.78198
G1 X87.778 Y132.168 E0.78549
G1 X87.819 Y132.188 E0.78638
G1 X87.853 Y132.152 E0.78735
G1 X88.689 Y131.968 E0.80415
G1 X88.574 Y131.578 E0.81214
G1 X88.487 Y130.701 E0.82941
G1 E0.22941 F1440.00000
G92 E0
G1 X88.385 Y127.384 F18000.000
G1 E0.60000 F1440.00000
G1 X87.067 Y126.891 E0.62762 F3600.000
G1 X86.778 Y127.390 E0.63893
G1 X85.189 Y127.390 E0.67012
G1 X85.271 Y127.697 E0.67636
G1 X86.778 Y127.697 E0.70594
G1 X88.222 Y130.197 E0.76258
G1 X88.657 Y130.197 E0.77111
G1 X88.766 Y129.866 E0.77795
G1 X89.144 Y129.509 E0.78815
G1 X89.303 Y129.319 E0.79302
G1 X89.647 Y129.083 E0.80121
G1 X89.876 Y128.868 E0.80737
G1 X90.152 Y128.666 E0.81407
G1 X89.734 Y127.970 E0.83000
G1 X89.715 Y127.719 E0.83495
G1 X88.690 Y127.482 E0.85559
G1 X88.385 Y127.384 E0.86187
G1 E0.26187 F1440.00000
G92 E0
G1 X85.971 Y126.141 F18000.000
G1 E0.60000 F1440.00000
G1 X84.175 Y124.846 E0.64344 F3600.000
G1 X84.917 Y127.604 E0.69947
G1 X84.333 Y127.726 E0.71119
G1 X84.376 Y128.015 E0.71692
G1 X83.136 Y128.036 E0.74124
G1 X83.133 Y128.144 E0.74337
G1 X81.842 Y128.365 E0.76907
G1 X81.820 Y128.907 E0.77972
G1 X81.072 Y129.265 E0.79599
G1 X80.585 Y129.582 E0.80739
G1 X80.062 Y128.250 E0.83546
G1 X78.378 Y131.533 E0.90784
G1 X78.168 Y132.029 E0.91843
G1 X78.250 Y132.697 E0.93163
G1 X78.468 Y133.656 E0.95091
G1 X79.900 Y134.156 E0.98068
G1 X82.390 Y134.079 E1.02956
G1 X82.022 Y133.179 E1.04863
G1 X82.511 Y132.971 E1.05905
G1 X83.259 Y132.446 E1.07699
G1 X83.438 Y132.601 E1.08162
G1 X84.223 Y132.327 E1.09795
G1 X84.275 Y132.345 E1.09901
G1 X84.303 Y132.300 E1.10007
G1 X85.672 Y131.823 E1.12851
G1 X86.717 Y132.005 E1.14932
G1 X87.295 Y132.287 E1.16194
G1 X87.388 Y132.579 E1.16796
G1 X87.738 Y132.502 E1.17500
G1 X87.891 Y132.576 E1.17832
G1 X88.017 Y132.441 E1.18196
G1 X89.087 Y132.206 E1.20345
G1 X88.890 Y131.527 E1.21733
G1 X88.812 Y130.734 E1.23296
G1 X89.042 Y130.042 E1.24728
G1 X89.376 Y129.728 E1.25628
G1 X89.519 Y129.556 E1.26066
G1 X89.847 Y129.331 E1.26847
G1 X90.073 Y129.119 E1.27454
G1 X90.262 Y128.991 E1.27902
G1 X90.556 Y128.721 E1.28684
G1 X90.045 Y127.871 E1.30631
G1 X90.013 Y127.461 E1.31437
G1 X88.774 Y127.175 E1.33932
G1 X88.486 Y127.083 E1.34526
G1 X85.971 Y126.141 E1.39796
G1 E0.79796 F1440.00000
G92 E0
G1 X81.916 Y130.197 F18000.000
G1 E0.60000 F1440.00000
G1 X82.892 Y128.508 E0.63827 F3600.000
G1 X82.149 Y128.635 E0.65305
G1 X82.130 Y129.111 E0.66240
G1 X81.227 Y129.543 E0.68203
G1 X80.431 Y130.061 E0.70066
G1 X80.023 Y129.022 E0.72256
G1 X79.420 Y130.197 E0.74848
G1 X81.916 Y130.197 E0.79745
G1 X82.944 Y132.283 F18000.000
G1 X81.916 Y130.504 E0.83776 F3600.000
G1 X79.263 Y130.504 E0.88983
G1 X78.666 Y131.667 E0.91548
G1 X78.493 Y132.077 E0.92421
G1 X78.563 Y132.638 E0.93531
G1 X78.739 Y133.414 E0.95092
G1 X79.948 Y133.837 E0.97605
G1 X81.923 Y133.775 E1.01481
G1 X81.608 Y133.006 E1.03112
G1 X82.356 Y132.691 E1.04704
G1 X82.944 Y132.283 E1.06108
G1 E0.46108 F1440.00000
G92 E0
G1 X97.109 Y115.986 F18000.000
G1 E0.60000 F1440.00000
G1 X96.958 Y115.890 E0.60351 F3600.000
G1 X97.343 Y117.334 E0.63285
G1 X97.309 Y117.866 E0.64330
G1 X97.492 Y118.183 E0.65049
G1 X98.023 Y117.765 E0.66375
G1 X98.803 Y117.263 E0.68195
G1 X98.506 Y117.070 E0.68890
G1 X97.686 Y116.402 E0.70965
G1 X97.328 Y116.127 E0.71851
G1 X97.109 Y115.986 E0.72362
G1 X96.460 Y115.227 F18000.000
G1 X97.023 Y117.366 E0.76701 F3600.000
G1 X96.909 Y119.145 E0.80200
G1 X97.348 Y118.724 E0.81395
G1 X97.789 Y118.345 E0.82536
G1 X98.216 Y118.018 E0.83591
G1 X99.081 Y117.466 E0.85603
G1 X99.461 Y117.269 E0.86445
G1 X99.328 Y117.185 E0.86755
G1 X99.174 Y117.131 E0.87074
G1 X98.696 Y116.815 E0.88199
G1 X97.514 Y115.869 E0.91170
G1 X96.460 Y115.227 E0.93590
G1 E0.33590 F1440.00000
G92 E0
G1 X102.808 Y116.161 F18000.000
G1 E0.60000 F1440.00000
G1 X102.757 Y116.073 E0.60201 F3600.000
G1 X102.672 Y116.127 E0.60399
G1 X101.494 Y117.070 E0.63359
G1 X101.197 Y117.263 E0.64054
G1 X101.559 Y117.482 E0.64885
G1 X102.033 Y117.811 E0.66017
G1 X102.808 Y116.469 E0.69059
G1 X102.888 Y116.469 E0.69216
G1 X102.970 Y116.161 E0.69840
G1 X102.808 Y116.161 E0.70157
G1 X102.977 Y117.366 F18000.000
G1 X103.550 Y115.220 E0.74515 F3600.000
G1 X102.486 Y115.869 E0.76959
G1 X101.304 Y116.815 E0.79930
G1 X100.826 Y117.131 E0.81055
G1 X100.672 Y117.185 E0.81374
G1 X100.539 Y117.269 E0.81685
G1 X100.919 Y117.466 E0.82526
G1 X101.784 Y118.018 E0.84539
G1 X102.211 Y118.345 E0.85593
G1 X102.652 Y118.724 E0.86734
G1 X103.091 Y119.145 E0.87929
G1 X102.977 Y117.366 E0.91428
G1 E0.31428 F1440.00000
G92 E0
G1 X102.808 Y110.547 F18000.000
G1 E0.60000 F1440.00000
G1 X101.364 Y108.047 E0.65664 F3600.000
G1 X98.155 Y108.047 E0.71962
G1 X97.915 Y108.101 E0.72444
G1 X96.502 Y110.547 E0.77987
G1 X94.048 Y110.547 E0.82803
G1 X94.089 Y110.775 E0.83256
G1 X94.133 Y110.854 E0.83436
G1 X96.502 Y110.854 E0.88084
G1 X97.011 Y111.735 E0.90080
G1 X97.129 Y111.502 E0.90594
G1 X98.034 Y111.732 E0.92425
G1 X98.582 Y111.897 E0.93549
G1 X99.110 Y112.011 E0.94608
G1 X99.530 Y112.079 E0.95444
G1 X100.000 Y112.110 E0.96368
G1 X100.470 Y112.079 E0.97291
G1 X100.890 Y112.011 E0.98127
G1 X101.418 Y111.897 E0.99187
G1 X101.582 Y111.837 E0.99530
G1 X102.355 Y111.639 E1.01095
G1 X102.808 Y110.854 E1.02872
G1 X105.867 Y110.854 E1.08874
G1 X105.911 Y110.775 E1.09053
G1 X105.952 Y110.547 E1.09506
G1 X102.808 Y110.547 E1.15676
G1 X100.176 Y107.508 F18000.000
G1 X99.555 Y107.517 E1.16893 F3600.000
G1 X99.120 Y107.557 E1.17750
G1 X98.576 Y107.636 E1.18829
G1 X97.521 Y107.871 E1.20950
G1 X96.608 Y108.139 E1.22817
G1 X96.110 Y107.504 E1.24401
G1 X94.884 Y108.154 E1.27123
G1 X94.639 Y108.304 E1.27687
G1 X94.170 Y108.751 E1.28957
G1 X93.862 Y109.243 E1.30098
G1 X93.705 Y109.773 E1.31182
G1 X93.661 Y110.250 E1.32122
G1 X93.786 Y110.883 E1.33388
G1 X94.016 Y111.323 E1.34362
G1 X94.187 Y111.552 E1.34923
G1 X94.552 Y111.909 E1.35926
G1 X94.757 Y112.051 E1.36415
G1 X94.882 Y112.112 E1.36689
G1 X95.211 Y112.266 E1.37401
G1 X95.740 Y112.432 E1.38489
G1 X96.893 Y112.674 E1.40800
G1 X97.296 Y111.875 E1.42555
G1 X98.325 Y112.141 E1.44639
G1 X98.495 Y112.204 E1.44995
G1 X99.046 Y112.324 E1.46102
G1 X99.492 Y112.396 E1.46987
G1 X100.000 Y112.428 E1.47986
G1 X100.508 Y112.396 E1.48986
G1 X100.954 Y112.324 E1.49871
G1 X101.505 Y112.204 E1.50978
G1 X101.675 Y112.141 E1.51334
G1 X102.704 Y111.875 E1.53418
G1 X103.107 Y112.674 E1.55173
G1 X104.260 Y112.432 E1.57484
G1 X104.789 Y112.266 E1.58572
G1 X105.118 Y112.112 E1.59284
G1 X105.243 Y112.051 E1.59558
G1 X105.448 Y111.909 E1.60047
G1 X105.813 Y111.552 E1.61049
G1 X105.984 Y111.323 E1.61611
G1 X106.214 Y110.883 E1.62584
G1 X106.339 Y110.250 E1.63851
G1 X106.295 Y109.773 E1.64791
G1 X106.138 Y109.243 E1.65875
G1 X105.830 Y108.751 E1.67015
G1 X105.361 Y108.304 E1.68286
G1 X105.116 Y108.154 E1.68850
G1 X103.890 Y107.504 E1.71572
G1 X103.392 Y108.139 E1.73156
G1 X102.479 Y107.871 E1.75023
G1 X101.731 Y107.696 E1.76531
G1 X100.880 Y107.557 E1.78223
G1 X100.176 Y107.508 E1.79608
G1 E1.19608 F1440.00000
G92 E0
G1 X112.532 Y127.390 F18000.000
G1 E0.60000 F1440.00000
G1 X112.366 Y127.103 E0.60650 F3600.000
G1 X111.310 Y127.482 E0.62851
G1 X110.285 Y127.719 E0.64915
G1 X110.266 Y127.970 E0.65410
G1 X109.848 Y128.666 E0.67003
G1 X110.124 Y128.868 E0.67673
G1 X110.353 Y129.083 E0.68289
G1 X110.697 Y129.319 E0.69108
G1 X110.856 Y129.509 E0.69595
G1 X111.234 Y129.866 E0.70615
G1 X111.251 Y129.916 E0.70718
G1 X112.532 Y127.697 E0.75746
G1 X114.729 Y127.697 E0.80057
G1 X114.811 Y127.390 E0.80681
G1 X112.532 Y127.390 E0.85153
G1 E0.25153 F1440.00000
G92 E0
G1 X115.710 Y125.271 F18000.000
G1 E0.60000 F1440.00000
G1 X115.825 Y124.846 E0.60863 F3600.000
G1 X114.029 Y126.141 E0.65207
G1 X111.514 Y127.083 E0.70477
G1 X111.226 Y127.175 E0.71071
G1 X109.987 Y127.462 E0.73566
G1 X109.955 Y127.871 E0.74372
G1 X109.444 Y128.721 E0.76319
G1 X109.738 Y128.991 E0.77101
G1 X109.927 Y129.119 E0.77549
G1 X110.153 Y129.331 E0.78157
G1 X110.481 Y129.556 E0.78937
G1 X110.624 Y129.728 E0.79376
G1 X110.958 Y130.042 E0.80275
G1 X111.188 Y130.734 E0.81707
G1 X111.110 Y131.527 E0.83270
G1 X110.913 Y132.207 E0.84658
G1 X111.983 Y132.441 E0.86807
G1 X112.109 Y132.576 E0.87171
G1 X112.262 Y132.502 E0.87503
G1 X112.612 Y132.579 E0.88208
G1 X112.705 Y132.287 E0.88809
G1 X113.283 Y132.005 E0.90072
G1 X114.328 Y131.823 E0.92153
G1 X115.697 Y132.300 E0.94997
G1 X115.725 Y132.345 E0.95102
G1 X115.777 Y132.327 E0.95209
G1 X116.562 Y132.601 E0.96841
G1 X116.741 Y132.446 E0.97304
G1 X117.489 Y132.971 E0.99098
G1 X117.978 Y133.179 E1.00140
G1 X117.610 Y134.079 E1.02048
G1 X120.100 Y134.156 E1.06935
G1 X121.532 Y133.656 E1.09911
G1 X121.750 Y132.697 E1.11839
G1 X121.832 Y132.029 E1.13160
G1 X121.622 Y131.533 E1.14219
G1 X119.938 Y128.250 E1.21457
G1 X119.415 Y129.582 E1.24264
G1 X118.928 Y129.265 E1.25404
G1 X118.180 Y128.907 E1.27031
G1 X118.158 Y128.365 E1.28096
G1 X116.867 Y128.144 E1.30665
G1 X116.864 Y128.036 E1.30878
G1 X115.624 Y128.015 E1.33311
G1 X115.667 Y127.726 E1.33884
G1 X115.083 Y127.604 E1.35056
G1 X115.710 Y125.271 E1.39796
G1 E0.79796 F1440.00000
G92 E0
G1 X116.556 Y128.348 F18000.000
G1 E0.60000 F1440.00000
G1 X116.324 Y128.344 E0.60455 F3600.000
G1 X117.394 Y130.197 E0.64652
G1 X120.580 Y130.197 E0.70903
G1 X119.977 Y129.022 E0.73494
G1 X119.569 Y130.061 E0.75684
G1 X118.773 Y129.543 E0.77547
G1 X117.870 Y129.111 E0.79510
G1 X117.851 Y128.635 E0.80446
G1 X116.558 Y128.414 E0.83019
G1 X116.556 Y128.348 E0.83148
G1 E0.23148 F1440.00000
G92 E0
G1 X121.334 Y131.667 F18000.000
G1 E0.60000 F1440.00000
G1 X120.737 Y130.504 E0.62565 F3600.000
G1 X117.394 Y130.504 E0.69125
G1 X116.409 Y132.211 E0.72992
G1 X116.493 Y132.240 E0.73167
G1 X116.724 Y132.039 E0.73768
G1 X117.644 Y132.691 E0.75980
G1 X118.392 Y133.006 E0.77572
G1 X118.078 Y133.775 E0.79203
G1 X120.052 Y133.837 E0.83079
