; generated by Slic3r 1.2.9 on 2016-11-10 at 18:18:39

; external perimeters extrusion width = 0.35mm
; perimeters extrusion width = 0.44mm
; infill extrusion width = 0.44mm
; solid infill extrusion width = 0.44mm
; top infill extrusion width = 0.44mm
; support material extrusion width = 0.35mm

M104 S220 ; set temperature
G28 ; home all axes
G1 Z5 F5000 ; lift nozzle
M109 S220 ; wait for temperature to be reached
G21 ; set units to millimeters
G90 ; use absolute coordinates
M82 ; use absolute distances for extrusion
G92 E0
G1 Z0.300 F18000.000
G1 E-0.60000 F1440.00000
G92 E0
G1 Z0.500 F18000.000
G1 X91.890 Y102.622 F18000.000
G1 Z0.300 F18000.000
G1 E0.60000 F1440.00000
G1 X93.696 Y101.768 E0.73349 F1080.000
G1 X95.104 Y101.350 E0.83157
G1 X95.598 Y101.224 E0.86565
G1 X96.940 Y100.938 E0.95731
G1 X97.506 Y100.843 E0.99562
G1 X98.783 Y100.686 E1.08158
G1 X99.671 Y100.637 E1.14099
G1 X100.861 Y100.654 E1.22050
G1 X101.645 Y100.712 E1.27304 F1080.000
G1 X102.768 Y100.863 E1.34870
G1 X103.244 Y100.945 E1.38097
G1 X104.327 Y101.174 E1.45496
G1 X105.600 Y101.482 E1.54245
G1 X106.768 Y101.889 E1.62507
G1 X107.742 Y102.335 E1.69668
G1 X109.433 Y103.456 E1.83220
G1 X110.254 Y104.208 E1.90660
G1 X111.136 Y105.198 E1.99517
G1 X127.416 Y127.705 E3.85085
G1 X128.409 Y129.755 E4.00302
G1 X128.638 Y132.022 E4.15519
G1 X127.963 Y134.464 E4.32447
G1 X126.386 Y137.611 E4.55961
G1 X125.026 Y139.438 E4.71178
G1 X122.188 Y141.008 E4.92845
G1 X102.898 Y146.023 E6.25992
G1 X101.976 Y146.193 E6.32262
G1 X100.707 Y146.334 E6.40791
G1 X99.466 Y146.353 E6.49082
G1 X98.314 Y146.262 E6.56804
G1 X97.330 Y146.107 E6.63453
G1 X96.259 Y145.854 E6.70807
G1 X77.040 Y140.821 E8.03532
G1 X74.541 Y139.544 E8.22277
G1 X73.693 Y138.845 E8.29617
G1 X72.214 Y137.113 E8.44834
G1 X71.419 Y134.978 E8.60051
G1 X71.405 Y132.701 E8.75269
G1 X72.005 Y130.872 E8.88125
G1 X74.026 Y126.840 E9.18255
G1 X74.569 Y125.943 E9.25258
G1 X90.256 Y104.209 E11.04323
G1 X91.853 Y102.659 E11.19189
G1 E10.59189 F1440.00000
G92 E0
G1 Z0.500 F18000.000
G1 X100.000 Y132.174 F18000.000
G1 Z0.300 F18000.000
G1 E0.60000 F1440.00000
G1 X99.793 Y131.990 E0.61850 F900.000
G1 X99.795 Y131.792 E0.63174
G1 X99.822 Y131.715 E0.63713
G1 X100.000 Y131.546 E0.65356
G1 X100.178 Y131.715 E0.66999
G1 X100.205 Y131.792 E0.67538
G1 X100.207 Y131.990 E0.68862
G1 X100.039 Y132.139 E0.70361
G1 X100.000 Y132.722 F18000.000
G1 X99.703 Y132.626 E0.72448 F900.000
G1 X99.344 Y132.307 E0.75652
G1 X99.257 Y132.056 E0.77431
G1 X99.261 Y131.698 E0.79820
G1 X99.358 Y131.417 E0.81808
G1 X99.738 Y131.056 E0.85308
G1 X99.999 Y130.996 E0.87101
G1 X100.262 Y131.056 E0.88903
G1 X100.642 Y131.417 E0.92402
G1 X100.739 Y131.698 E0.94390
G1 X100.743 Y132.056 E0.96779
G1 X100.656 Y132.307 E0.98558
G1 X100.297 Y132.626 E1.01762
G1 X100.050 Y132.706 E1.03498
G1 X100.164 Y133.232 F18000.000
G1 X100.000 Y133.271 E1.04626 F900.000
G1 X99.431 Y133.101 E1.08592
G1 X98.929 Y132.655 E1.13080
G1 X98.846 Y132.506 E1.14217
G1 X98.720 Y132.144 E1.16781
G1 X98.726 Y131.605 E1.20379
G1 X98.869 Y131.193 E1.23293
G1 X98.921 Y131.094 E1.24041
G1 X99.462 Y130.579 E1.29030
G1 X100.000 Y130.447 E1.32728
G1 X100.039 Y130.456 E1.32998
G1 X100.538 Y130.579 E1.36432 F900.000
G1 X101.079 Y131.094 E1.41421
G1 X101.131 Y131.193 E1.42169
G1 X101.274 Y131.605 E1.45083
G1 X101.280 Y132.144 E1.48681
G1 X101.154 Y132.506 E1.51245
G1 X101.071 Y132.655 E1.52382
G1 X100.569 Y133.101 E1.56870
G1 X100.214 Y133.216 E1.59360
G1 X100.045 Y133.112 F18000.000
G1 Z0.300 F18000.000
G1 E0.99360 F1440.00000
G92 E0
G1 Z0.500 F18000.000
G1 X102.240 Y134.774 F18000.000
G1 Z0.300 F18000.000
G1 E0.60000 F1440.00000
G1 X100.710 Y137.826 E0.72163 F1080.000
G1 X100.369 Y137.862 E0.73388
G1 X101.778 Y135.050 E0.84596
G1 X101.362 Y135.234 E0.86219
G1 X100.027 Y137.898 E0.96835
G1 X99.713 Y137.879 E0.97956
G1 X100.963 Y135.384 E1.07898
G1 X100.602 Y135.459 E1.09214
G1 X99.405 Y137.846 E1.18726
G1 X99.097 Y137.814 E1.19829
G1 X100.254 Y135.507 E1.29025
G1 X99.923 Y135.521 E1.30204
G1 X98.800 Y137.762 E1.39135
G1 X98.517 Y137.680 E1.40184
G1 X99.620 Y135.479 E1.48954
G1 X99.317 Y135.438 E1.50044
G1 X98.234 Y137.598 E1.58653
G1 X97.951 Y137.518 E1.59703
G1 X99.035 Y135.354 E1.68323
G1 X98.763 Y135.252 E1.69360
G1 X97.692 Y137.388 E1.77873
G1 X97.433 Y137.259 E1.78904
G1 X98.490 Y135.151 E1.87304
G1 X98.235 Y135.013 E1.88336
G1 X97.174 Y137.129 E1.96769
G1 X96.916 Y136.999 E1.97800
G1 X97.985 Y134.866 E2.06300
G1 X97.741 Y134.706 E2.07338
G1 X96.669 Y136.845 E2.15859
G1 X96.426 Y136.684 E2.16898
G1 X97.515 Y134.511 E2.25558
G1 X97.295 Y134.304 E2.26634
G1 X96.183 Y136.524 E2.35477
G1 X95.952 Y136.339 E2.36532
G1 X97.075 Y134.098 E2.45461
G1 X96.872 Y133.856 E2.46585
G1 X95.723 Y136.149 E2.55721
G1 X95.502 Y135.944 E2.56795
G1 X96.688 Y133.577 E2.66228
G1 X96.505 Y133.297 E2.67419
G1 X95.285 Y135.730 E2.77113
G1 X95.075 Y135.504 E2.78212
G1 X96.354 Y132.952 E2.88383
G1 X96.214 Y132.585 E2.89783
G1 X94.866 Y135.275 E3.00506
G1 X94.668 Y135.024 E3.01646
G1 X96.142 Y132.083 E3.13366
G1 X96.149 Y131.423 F18000.000
G1 X94.480 Y134.754 E3.26640 F1080.000
G1 X94.295 Y134.477 E3.27826
G1 X98.865 Y125.357 E3.64165
G1 X99.229 Y125.277 E3.65494
G1 X97.352 Y129.023 E3.80424
G1 X97.928 Y128.520 F18000.000
G1 X99.570 Y125.243 E3.93480 F1080.000
G1 X99.910 Y125.210 E3.94698
G1 X98.390 Y128.244 E4.06787
G1 X98.803 Y128.066 E4.08388
G1 X100.231 Y125.217 E4.19744
G1 X100.540 Y125.247 E4.20849
G1 X99.203 Y127.914 E4.31477
G1 X99.552 Y127.863 E4.32734
G1 X100.848 Y125.277 E4.43041
G1 X101.141 Y125.338 E4.44107
G1 X99.896 Y127.824 E4.54011
G1 X100.209 Y127.844 E4.55131
G1 X101.426 Y125.416 E4.64806
G1 X101.710 Y125.495 E4.65857
G1 X100.514 Y127.883 E4.75373
G1 X100.806 Y127.946 E4.76437
G1 X101.984 Y125.595 E4.85806
G1 X102.250 Y125.711 E4.86839
G1 X101.077 Y128.050 E4.96160
G1 X101.349 Y128.154 E4.97196
G1 X102.510 Y125.837 E5.06427
G1 X102.769 Y125.967 E5.07458
G1 X101.606 Y128.287 E5.16706
G1 X101.855 Y128.436 E5.17740
G1 X103.016 Y126.119 E5.26971
G1 X103.258 Y126.282 E5.28011
G1 X102.104 Y128.585 E5.37186
G1 X102.328 Y128.784 E5.38254
G1 X103.500 Y126.445 E5.47573
G1 X103.730 Y126.633 E5.48629
G1 X102.545 Y128.998 E5.58054
G1 X102.764 Y129.208 E5.59133
G1 X103.960 Y126.820 E5.68645
G1 X104.178 Y127.032 E5.69727
G1 X102.969 Y129.445 E5.79341
G1 X103.152 Y129.724 E5.80532
G1 X104.395 Y127.245 E5.90412
G1 X104.601 Y127.480 E5.91526
G1 X103.336 Y130.004 E6.01583
G1 X103.496 Y130.331 E6.02881
G1 X104.808 Y127.713 E6.13315
G1 X105.001 Y127.973 E6.14471
G1 X103.653 Y130.664 E6.25192
G1 X103.765 Y131.085 E6.26746
G1 X105.193 Y128.237 E6.38097
G1 X105.377 Y128.516 E6.39289
G1 X103.850 Y131.562 E6.51426
G1 X103.867 Y132.175 E6.53612
G1 X105.546 Y128.824 E6.66968
G1 X105.713 Y129.137 E6.68232
G1 X101.436 Y137.671 E7.02240
G1 X101.814 Y137.562 E7.03643
G1 X105.872 Y129.466 E7.35906
G1 X106.015 Y129.826 E7.37286
G1 X102.215 Y137.409 E7.67501
G1 X102.641 Y137.205 E7.69183
G1 X106.150 Y130.203 E7.97084
G1 X106.259 Y130.633 E7.98663
G1 X103.091 Y136.953 E8.23850
G1 X103.575 Y136.633 E8.25920
G1 X106.351 Y131.094 E8.47990
G1 X106.413 Y131.617 E8.49867
G1 X104.098 Y136.235 E8.68268
G1 X104.718 Y135.644 F18000.000
G1 X106.394 Y132.301 E8.81589 F1080.000
G1 X106.129 Y133.476 F18000.000
G1 X105.622 Y134.486 E8.85615 F1080.000
G1 E8.25615 F1440.00000
G92 E0
G1 Z0.500 F18000.000
G1 X102.815 Y134.273 F18000.000
G1 Z0.300 F18000.000
G1 E0.60000 F1440.00000
G1 X101.057 Y137.781 E0.73978 F1080.000
G1 E0.13978 F1440.00000
G92 E0
G1 Z0.500 F18000.000
G1 X94.124 Y134.171 F18000.000
G1 Z0.300 F18000.000
G1 E0.60000 F1440.00000
G1 X98.490 Y125.461 E0.94709 F1080.000
G1 X98.100 Y125.592 E0.96173
G1 X93.965 Y133.842 E1.29047
G1 X93.814 Y133.498 E1.30386
G1 X97.686 Y125.772 E1.61171
G1 X97.253 Y125.989 E1.62896
G1 X93.709 Y133.061 E1.91077
G1 X93.611 Y132.610 E1.92722
G1 X96.764 Y126.319 E2.17791
G1 X96.239 Y126.720 F18000.000
G1 X93.583 Y132.020 E2.38909 F1080.000
G1 X93.649 Y131.242 F18000.000
G1 X95.614 Y127.322 E2.54527 F1080.000
G1 X94.644 Y128.611 F18000.000
G1 X94.083 Y129.730 E2.58987 F1080.000
G1 E1.98987 F1440.00000
G92 E0
G1 Z0.500 F18000.000
G1 X89.019 Y133.030 F18000.000
G1 Z0.300 F18000.000
G1 E0.60000 F1440.00000
G1 X89.557 Y131.955 E0.68031 F1080.000
G1 X87.802 Y133.065 E0.81905
G1 X90.597 Y127.489 E1.23573
G1 X89.524 Y127.239 E1.30933
G1 X86.980 Y132.315 E1.68860
G1 X85.899 Y132.082 F18000.000
G1 X88.394 Y127.104 E2.06060 F1080.000
G1 X87.422 Y126.651 E2.13219
G1 X84.677 Y132.128 E2.54146
G1 X82.981 Y133.122 F18000.000
G1 X86.421 Y126.257 E3.05444 F1080.000
G1 X85.420 Y125.864 E3.12630
G1 X81.006 Y134.671 E3.78445
G1 X79.789 Y134.709 E3.86581
G1 X83.362 Y127.580 E4.39854
G1 X81.650 Y128.605 E4.53183
G1 X78.696 Y134.499 E4.97226
G1 X77.848 Y133.800 E5.04567
G1 X79.869 Y129.768 E5.34697
G1 E4.74697 F1440.00000
G92 E0
G1 Z0.500 F18000.000
G1 X96.430 Y115.851 F18000.000
G1 Z0.300 F18000.000
G1 E0.60000 F1440.00000
G1 X96.815 Y115.083 E0.65742 F1080.000
G1 X97.750 Y115.609 E0.72907
G1 X96.370 Y118.362 E0.93477
G1 X97.162 Y119.173 E1.01048
G1 X98.646 Y116.212 E1.23173
G1 X98.942 Y118.012 E1.35360
G1 X99.637 Y116.624 E1.45730
G1 X100.893 Y116.510 E1.54153
G1 X100.229 Y117.834 E1.64047
G1 X101.263 Y118.162 E1.71292
G1 X102.608 Y115.480 E1.91337
G1 X103.528 Y116.033 E1.98515
G1 X102.173 Y118.738 E2.18723
G1 X103.443 Y118.595 E2.27257
G1 X103.007 Y119.465 E2.33752
G1 X103.989 Y119.897 E2.40917
G1 X103.800 Y120.272 E2.43726
G1 E1.83726 F1440.00000
G92 E0
G1 Z0.500 F18000.000
G1 X104.268 Y112.167 F18000.000
G1 Z0.300 F18000.000
G1 E0.60000 F1440.00000
G1 X105.841 Y109.029 E0.83450 F1080.000
G1 X105.020 Y108.277 E0.90890
G1 X102.990 Y112.326 E1.21150
G1 X101.665 Y112.578 E1.30158
G1 X104.045 Y107.830 E1.65640
G1 X102.978 Y107.569 E1.72981
G1 X100.334 Y112.843 E2.12396
G1 X99.158 Y112.799 E2.20258
G1 X101.894 Y107.340 E2.61050
G1 X100.772 Y107.189 E2.68616
G1 X98.083 Y112.554 E3.08708
G1 X96.989 Y112.345 E3.16145
G1 X99.582 Y107.172 E3.54794
G1 X98.305 Y107.330 E3.63391
G1 X95.839 Y112.249 E4.00148
G1 X94.839 Y111.853 E4.07332
G1 X96.963 Y107.616 E4.38995
G1 X95.555 Y108.034 E4.48803
G1 X94.093 Y110.950 E4.70597
G1 E4.10597 F1440.00000
G92 E0
G1 Z0.500 F18000.000
G1 X107.826 Y128.976 F18000.000
G1 Z0.300 F18000.000
G1 E0.60000 F1440.00000
G1 X106.569 Y131.484 E0.78742 F1080.000
G1 X106.174 Y129.881 E0.89771
G1 X107.239 Y127.757 E1.05644
G1 X106.581 Y126.678 E1.14084
G1 X105.585 Y128.665 E1.28937
G1 X104.884 Y127.673 E1.37052
G1 X105.855 Y125.737 E1.51526
G1 X105.060 Y124.931 E1.59085
G1 X104.099 Y126.849 E1.73421
G1 X103.233 Y126.186 E1.80707
G1 X104.210 Y124.237 E1.95271
G1 X103.299 Y123.663 E2.02462
G1 X102.297 Y125.662 E2.17400
G1 X101.278 Y125.305 E2.24616
G1 X102.332 Y123.201 E2.40333
G1 X101.285 Y122.900 E2.47613
G1 X100.167 Y125.130 E2.64276
G1 X98.930 Y125.209 E2.72560
G1 X100.156 Y122.763 E2.90838
G1 X98.892 Y122.893 E2.99326
G1 X97.489 Y125.692 E3.20238
G1 X95.666 Y126.938 E3.34991
G1 X97.464 Y123.351 E3.61794
G1 X95.761 Y124.359 E3.75017
G1 X91.389 Y133.082 E4.40197
G1 X91.805 Y134.643 E4.50991
G1 X93.396 Y131.467 E4.74722
G1 X93.633 Y133.385 E4.87632
G1 X92.468 Y135.709 E5.05000
G1 X93.233 Y136.575 E5.12715
G1 X94.239 Y134.568 E5.27719
G1 X94.967 Y135.505 E5.35649
G1 X94.045 Y137.346 E5.49404
G1 X94.902 Y138.027 E5.56717
G1 X95.775 Y136.284 E5.69739
G1 X96.657 Y136.915 E5.76984
G1 X95.807 Y138.612 E5.89663
G1 X96.756 Y139.109 E5.96820
G1 X97.598 Y137.429 E6.09373
G1 X98.620 Y137.780 E6.16594
G1 X97.761 Y139.494 E6.29398
G1 X98.833 Y139.747 E6.36753
G1 X99.728 Y137.960 E6.50102
G1 X100.955 Y137.904 E6.58305
G1 X99.985 Y139.839 E6.72762
G1 X101.254 Y139.698 E6.81291
G1 X102.346 Y137.519 E6.97570
G1 X104.025 Y136.560 E7.10486
G1 X102.653 Y139.297 E7.30937
G1 X104.256 Y138.488 E7.42935
G1 X108.313 Y130.394 E8.03420
G1 X108.623 Y132.166 E8.15438
G1 X106.215 Y136.971 E8.51346
G1 E7.91346 F1440.00000
G92 E0
G1 Z0.500 F18000.000
G1 X111.708 Y133.184 F18000.000
G1 Z0.300 F18000.000
G1 E0.60000 F1440.00000
G1 X115.537 Y125.544 E1.17095 F1080.000
G1 X114.045 Y126.131 E1.27808
G1 X110.608 Y132.989 E1.79056
G1 X110.427 Y130.958 E1.92675
G1 X112.553 Y126.717 E2.24364
G1 X111.083 Y127.259 E2.34829
G1 X109.785 Y129.848 E2.54173
G1 X109.019 Y128.985 E2.61880
G1 X109.917 Y127.195 E2.75255
G1 E2.15255 F1440.00000
G92 E0
G1 Z0.500 F18000.000
G1 X113.484 Y132.030 F18000.000
G1 Z0.300 F18000.000
G1 E0.60000 F1440.00000
G1 X116.018 Y126.976 E0.97768 F1080.000
G1 X116.910 Y127.587 F18000.000
G1 X114.720 Y131.955 E1.30411 F1080.000
G1 X115.783 Y132.226 F18000.000
G1 X117.745 Y128.312 E1.59659 F1080.000
G1 X118.732 Y128.732 E1.66829
G1 X116.621 Y132.944 E1.98302
G1 X117.535 Y133.512 E2.05489
G1 X119.649 Y129.293 E2.37014
G1 X120.503 Y129.981 E2.44337
G1 X118.532 Y133.913 E2.73721
G1 X119.343 Y134.687 E2.81207
G1 X121.320 Y130.741 E3.10689
G1 X122.120 Y131.536 E3.18221
G1 X120.543 Y134.682 E3.41735
G1 Z0.500 F18000.000
G1 E2.81735 F1440.00000
G92 E0
G1 Z0.700 F18000.000
G1 X106.960 Y132.306 F18000.000
G1 Z0.500 F18000.000
G1 E0.60000 F1440.00000
G1 X105.204 Y135.808 E0.70003 F3600.000
G1 X104.834 Y135.150 F18000.000
G1 X103.954 Y136.907 E0.75021 F3600.000
G1 X103.434 Y137.245 F18000.000
G1 X104.104 Y135.909 E0.78839 F3600.000
G1 X104.100 Y135.577 F18000.000
G1 X105.795 Y132.194 E0.88500 F3600.000
G1 X105.982 Y132.860 F18000.000
G1 X106.881 Y131.066 E0.93625 F3600.000
G1 X106.770 Y130.589 E0.94876
G1 X106.059 Y132.008 E0.98928
G1 X106.008 Y131.412 E1.00456
G1 X106.652 Y130.127 E1.04125
G1 X106.505 Y129.722 E1.05226
G1 X105.927 Y130.874 E1.08516
G1 X105.814 Y130.403 E1.09753
G1 X106.349 Y129.333 E1.12807
G1 X106.176 Y128.980 E1.13811
G1 X105.673 Y129.984 E1.16677
G1 X105.514 Y129.604 E1.17730
G1 X106.002 Y128.629 E1.20513
G1 X105.813 Y128.309 E1.21463
G1 X105.345 Y129.243 E1.24131
G1 X105.157 Y128.919 E1.25087
G1 X105.616 Y128.003 E1.27703
G1 X105.414 Y127.708 E1.28616
G1 X104.968 Y128.597 E1.31155
G1 X104.766 Y128.303 E1.32067
G1 X105.200 Y127.437 E1.34539
G1 X104.986 Y127.165 E1.35423
G1 X104.550 Y128.036 E1.37910
G1 X104.330 Y127.777 E1.38778
G1 X104.763 Y126.913 E1.41246
G1 X104.527 Y126.685 E1.42084
G1 X104.105 Y127.526 E1.44487
G1 X103.870 Y127.298 E1.45324
G1 X104.292 Y126.455 E1.47731
G1 X104.048 Y126.244 E1.48555
G1 X103.624 Y127.090 E1.50971
G1 X103.373 Y126.891 E1.51788
G1 X103.801 Y126.038 E1.54224
G1 X103.544 Y125.852 E1.55034
G1 X103.123 Y126.693 E1.57434
G1 X102.863 Y126.514 E1.58240
G1 X103.282 Y125.678 E1.60628
G1 X103.011 Y125.519 E1.61429
G1 X102.584 Y126.371 E1.63864
G1 X102.304 Y126.231 E1.64663
G1 X102.736 Y125.371 E1.67119
G1 X102.456 Y125.231 E1.67918
G1 X102.025 Y126.091 E1.70375
G1 X101.728 Y125.984 E1.71179
G1 X102.174 Y125.095 E1.73718
G1 X101.881 Y124.980 E1.74520
G1 X101.427 Y125.887 E1.77111
G1 X101.125 Y125.791 E1.77920
G1 X101.577 Y124.888 E1.80499
G1 X101.265 Y124.813 E1.81319
G1 X100.806 Y125.729 E1.83935
G1 X100.475 Y125.691 E1.84786
G1 X100.953 Y124.737 E1.87509
G1 X100.620 Y124.703 E1.88363
G1 X100.144 Y125.653 E1.91079
G1 X99.795 Y125.651 E1.91969
G1 X100.285 Y124.674 E1.94759
G1 X99.941 Y124.662 E1.95638
G1 X99.424 Y125.693 E1.98583
G1 X99.053 Y125.735 E1.99537
G1 X99.575 Y124.693 E2.02513
G1 X99.210 Y124.724 E2.03451
G1 X98.653 Y125.836 E2.06625
G1 X98.236 Y125.969 E2.07742
G1 X98.815 Y124.813 E2.11042
G1 X98.417 Y124.910 E2.12089
G1 X97.802 Y126.136 E2.15591
G1 X97.334 Y126.371 E2.16927
G1 X97.991 Y125.062 E2.20665
G1 X97.544 Y125.255 E2.21909
G1 X96.841 Y126.657 E2.25914
G1 X96.754 Y127.020 F18000.000
G1 X94.183 Y132.149 E2.40563 F3600.000
G1 X94.237 Y132.745 E2.42091
G1 X97.315 Y126.603 E2.59633
G1 X96.261 Y127.116 F18000.000
G1 X97.057 Y125.527 E2.64172 F3600.000
G1 X96.548 Y125.845 E2.65706
G1 X95.568 Y127.800 E2.71291
G1 X96.127 Y127.566 F18000.000
G1 X94.223 Y131.365 E2.82141 F3600.000
G1 X94.038 Y130.854 F18000.000
G1 X93.076 Y132.772 E2.87621 F3600.000
G1 X93.174 Y133.275 E2.88928
G1 X93.944 Y131.739 E2.93315
G1 X93.991 Y132.343 E2.94863
G1 X93.317 Y133.688 E2.98704
G1 X93.476 Y134.070 E2.99761
G1 X94.070 Y132.884 E3.03148
G1 X94.199 Y133.324 E3.04319
